; Circle.g

G90

if move.axes[0].homed = false || move.axes[1].homed = false || move.axes[2].homed = false
    G28 ; home

T-1 P0 ; set to no tool for machine coordinates

M400
G1 Z0 F7200 ; move to 0
M400
G4 P200 ; debounce

if move.axes[2].machinePosition > 800
    M118 P0 S"Z-axis must be below 800!" L3
    M99 ; exit macro

G1 F{global.tool_change_speed} ; set feedrate to 1200 mm/s

var zpos = move.axes[2].machinePosition
M400

M203 X144000 Y144000 ; increase speed limit
M201 X24000 Y24000 ; increase maxaccelerations
M204 T10000 ; increase travel accelerations

G1 X-497.5 Y152.5

G2 X497.5 Y152.5 R497.5 Z{var.zpos+0.5}
G2 X-497.5 Y152.5 R497.5 Z{var.zpos+1}
M204 T24000 ; increase travel accelerations

G2 X497.5 Y152.5 R497.5 Z{var.zpos+1.5}
G2 X-497.5 Y152.5 R497.5 Z{var.zpos+2}

G2 X497.5 Y152.5 R497.5 Z{var.zpos+2.5}
G2 X-497.5 Y152.5 R497.5 Z{var.zpos+3}

G2 X497.5 Y152.5 R497.5 Z{var.zpos+3.5}
G2 X-497.5 Y152.5 R497.5 Z{var.zpos+4}

G2 X497.5 Y152.5 R497.5 Z{var.zpos+4.5}
G2 X-497.5 Y152.5 R497.5 Z{var.zpos+5}

G2 X497.5 Y152.5 R497.5 Z{var.zpos+5.5}
G2 X-497.5 Y152.5 R497.5 Z{var.zpos+6}

G2 X497.5 Y152.5 R497.5 Z{var.zpos+6.5}
G2 X-497.5 Y152.5 R497.5 Z{var.zpos+7}

G2 X497.5 Y152.5 R497.5 Z{var.zpos+7.5}
G2 X-497.5 Y152.5 R497.5 Z{var.zpos+8}

G2 X497.5 Y152.5 R497.5 Z{var.zpos+8.5}
G2 X-497.5 Y152.5 R497.5 Z{var.zpos+9}

G2 X497.5 Y152.5 R497.5 Z{var.zpos+9.5}
G2 X-497.5 Y152.5 R497.5 Z{var.zpos+10}

G2 X497.5 Y152.5 R497.5 Z{var.zpos+10.5}
G2 X-497.5 Y152.5 R497.5 Z{var.zpos+11}

G2 X497.5 Y152.5 R497.5 Z{var.zpos+11.5}
G2 X-497.5 Y152.5 R497.5 Z{var.zpos+12}

G2 X497.5 Y152.5 R497.5 Z{var.zpos+12.5}
G2 X-497.5 Y152.5 R497.5 Z{var.zpos+13}

G2 X497.5 Y152.5 R497.5 Z{var.zpos+13.5}
G2 X-497.5 Y152.5 R497.5 Z{var.zpos+14}

G2 X497.5 Y152.5 R497.5 Z{var.zpos+14.5}
G2 X-497.5 Y152.5 R497.5 Z{var.zpos+15}

G2 X497.5 Y152.5 R497.5 Z{var.zpos+15.0}
G2 X-497.5 Y152.5 R497.5 Z{var.zpos+15.5}
G2 X497.5 Y152.5 R497.5 Z{var.zpos+15.5}
G2 X-497.5 Y152.5 R497.5 Z{var.zpos+16.0}
G2 X497.5 Y152.5 R497.5 Z{var.zpos+16.0}
G2 X-497.5 Y152.5 R497.5 Z{var.zpos+16.5}
G2 X497.5 Y152.5 R497.5 Z{var.zpos+16.5}
G2 X-497.5 Y152.5 R497.5 Z{var.zpos+17.0}
G2 X497.5 Y152.5 R497.5 Z{var.zpos+17.0}
G2 X-497.5 Y152.5 R497.5 Z{var.zpos+17.5}
G2 X497.5 Y152.5 R497.5 Z{var.zpos+17.5}
G2 X-497.5 Y152.5 R497.5 Z{var.zpos+18.0}
G2 X497.5 Y152.5 R497.5 Z{var.zpos+18.0}
G2 X-497.5 Y152.5 R497.5 Z{var.zpos+18.5}
G2 X497.5 Y152.5 R497.5 Z{var.zpos+18.5}
G2 X-497.5 Y152.5 R497.5 Z{var.zpos+19.0}
G2 X497.5 Y152.5 R497.5 Z{var.zpos+19.0}
G2 X-497.5 Y152.5 R497.5 Z{var.zpos+19.5}
G2 X497.5 Y152.5 R497.5 Z{var.zpos+19.5}
G2 X-497.5 Y152.5 R497.5 Z{var.zpos+20.0}
G2 X497.5 Y152.5 R497.5 Z{var.zpos+20.0}
G2 X-497.5 Y152.5 R497.5 Z{var.zpos+20.5}
G2 X497.5 Y152.5 R497.5 Z{var.zpos+20.5}
G2 X-497.5 Y152.5 R497.5 Z{var.zpos+21.0}
G2 X497.5 Y152.5 R497.5 Z{var.zpos+21.0}
G2 X-497.5 Y152.5 R497.5 Z{var.zpos+21.5}
G2 X497.5 Y152.5 R497.5 Z{var.zpos+21.5}
G2 X-497.5 Y152.5 R497.5 Z{var.zpos+22.0}
G2 X497.5 Y152.5 R497.5 Z{var.zpos+22.0}
G2 X-497.5 Y152.5 R497.5 Z{var.zpos+22.5}
G2 X497.5 Y152.5 R497.5 Z{var.zpos+22.5}
G2 X-497.5 Y152.5 R497.5 Z{var.zpos+23.0}
G2 X497.5 Y152.5 R497.5 Z{var.zpos+23.0}
G2 X-497.5 Y152.5 R497.5 Z{var.zpos+23.5}
G2 X497.5 Y152.5 R497.5 Z{var.zpos+23.5}
G2 X-497.5 Y152.5 R497.5 Z{var.zpos+24.0}
G2 X497.5 Y152.5 R497.5 Z{var.zpos+24.0}
G2 X-497.5 Y152.5 R497.5 Z{var.zpos+24.5}
G2 X497.5 Y152.5 R497.5 Z{var.zpos+24.5}
G2 X-497.5 Y152.5 R497.5 Z{var.zpos+25.0}
G2 X497.5 Y152.5 R497.5 Z{var.zpos+25.0}
G2 X-497.5 Y152.5 R497.5 Z{var.zpos+25.5}
G2 X497.5 Y152.5 R497.5 Z{var.zpos+25.5}
G2 X-497.5 Y152.5 R497.5 Z{var.zpos+26.0}
G2 X497.5 Y152.5 R497.5 Z{var.zpos+26.0}
G2 X-497.5 Y152.5 R497.5 Z{var.zpos+26.5}
G2 X497.5 Y152.5 R497.5 Z{var.zpos+26.5}
G2 X-497.5 Y152.5 R497.5 Z{var.zpos+27.0}
G2 X497.5 Y152.5 R497.5 Z{var.zpos+27.0}
G2 X-497.5 Y152.5 R497.5 Z{var.zpos+27.5}
G2 X497.5 Y152.5 R497.5 Z{var.zpos+27.5}
G2 X-497.5 Y152.5 R497.5 Z{var.zpos+28.0}
G2 X497.5 Y152.5 R497.5 Z{var.zpos+28.0}
G2 X-497.5 Y152.5 R497.5 Z{var.zpos+28.5}
G2 X497.5 Y152.5 R497.5 Z{var.zpos+28.5}
G2 X-497.5 Y152.5 R497.5 Z{var.zpos+29.0}
G2 X497.5 Y152.5 R497.5 Z{var.zpos+29.0}
G2 X-497.5 Y152.5 R497.5 Z{var.zpos+29.5}
G2 X497.5 Y152.5 R497.5 Z{var.zpos+29.5}
G2 X-497.5 Y152.5 R497.5 Z{var.zpos+30.0}
G2 X497.5 Y152.5 R497.5 Z{var.zpos+30.0}
G2 X-497.5 Y152.5 R497.5 Z{var.zpos+30.5}
G2 X497.5 Y152.5 R497.5 Z{var.zpos+30.5}
G2 X-497.5 Y152.5 R497.5 Z{var.zpos+31.0}
G2 X497.5 Y152.5 R497.5 Z{var.zpos+31.0}
G2 X-497.5 Y152.5 R497.5 Z{var.zpos+31.5}
G2 X497.5 Y152.5 R497.5 Z{var.zpos+31.5}
G2 X-497.5 Y152.5 R497.5 Z{var.zpos+32.0}
G2 X497.5 Y152.5 R497.5 Z{var.zpos+32.0}
G2 X-497.5 Y152.5 R497.5 Z{var.zpos+32.5}
G2 X497.5 Y152.5 R497.5 Z{var.zpos+32.5}
G2 X-497.5 Y152.5 R497.5 Z{var.zpos+33.0}
G2 X497.5 Y152.5 R497.5 Z{var.zpos+33.0}
G2 X-497.5 Y152.5 R497.5 Z{var.zpos+33.5}
G2 X497.5 Y152.5 R497.5 Z{var.zpos+33.5}
G2 X-497.5 Y152.5 R497.5 Z{var.zpos+34.0}
G2 X497.5 Y152.5 R497.5 Z{var.zpos+34.0}
G2 X-497.5 Y152.5 R497.5 Z{var.zpos+34.5}
G2 X497.5 Y152.5 R497.5 Z{var.zpos+34.5}
G2 X-497.5 Y152.5 R497.5 Z{var.zpos+35.0}
G2 X497.5 Y152.5 R497.5 Z{var.zpos+35.0}
G2 X-497.5 Y152.5 R497.5 Z{var.zpos+35.5}
G2 X497.5 Y152.5 R497.5 Z{var.zpos+35.5}
G2 X-497.5 Y152.5 R497.5 Z{var.zpos+36.0}
G2 X497.5 Y152.5 R497.5 Z{var.zpos+36.0}
G2 X-497.5 Y152.5 R497.5 Z{var.zpos+36.5}
G2 X497.5 Y152.5 R497.5 Z{var.zpos+36.5}
G2 X-497.5 Y152.5 R497.5 Z{var.zpos+37.0}
G2 X497.5 Y152.5 R497.5 Z{var.zpos+37.0}
G2 X-497.5 Y152.5 R497.5 Z{var.zpos+37.5}
G2 X497.5 Y152.5 R497.5 Z{var.zpos+37.5}
G2 X-497.5 Y152.5 R497.5 Z{var.zpos+38.0}
G2 X497.5 Y152.5 R497.5 Z{var.zpos+38.0}
G2 X-497.5 Y152.5 R497.5 Z{var.zpos+38.5}
G2 X497.5 Y152.5 R497.5 Z{var.zpos+38.5}
G2 X-497.5 Y152.5 R497.5 Z{var.zpos+39.0}
G2 X497.5 Y152.5 R497.5 Z{var.zpos+39.0}
G2 X-497.5 Y152.5 R497.5 Z{var.zpos+39.5}
G2 X497.5 Y152.5 R497.5 Z{var.zpos+39.5}
G2 X-497.5 Y152.5 R497.5 Z{var.zpos+40.0}
G2 X497.5 Y152.5 R497.5 Z{var.zpos+40.0}
G2 X-497.5 Y152.5 R497.5 Z{var.zpos+40.5}
G2 X497.5 Y152.5 R497.5 Z{var.zpos+40.5}
G2 X-497.5 Y152.5 R497.5 Z{var.zpos+41.0}
G2 X497.5 Y152.5 R497.5 Z{var.zpos+41.0}
G2 X-497.5 Y152.5 R497.5 Z{var.zpos+41.5}
G2 X497.5 Y152.5 R497.5 Z{var.zpos+41.5}
G2 X-497.5 Y152.5 R497.5 Z{var.zpos+42.0}
G2 X497.5 Y152.5 R497.5 Z{var.zpos+42.0}
G2 X-497.5 Y152.5 R497.5 Z{var.zpos+42.5}
G2 X497.5 Y152.5 R497.5 Z{var.zpos+42.5}
G2 X-497.5 Y152.5 R497.5 Z{var.zpos+43.0}
G2 X497.5 Y152.5 R497.5 Z{var.zpos+43.0}
G2 X-497.5 Y152.5 R497.5 Z{var.zpos+43.5}
G2 X497.5 Y152.5 R497.5 Z{var.zpos+43.5}
G2 X-497.5 Y152.5 R497.5 Z{var.zpos+44.0}
G2 X497.5 Y152.5 R497.5 Z{var.zpos+44.0}
G2 X-497.5 Y152.5 R497.5 Z{var.zpos+44.5}
G2 X497.5 Y152.5 R497.5 Z{var.zpos+44.5}
G2 X-497.5 Y152.5 R497.5 Z{var.zpos+45.0}
G2 X497.5 Y152.5 R497.5 Z{var.zpos+45.0}
G2 X-497.5 Y152.5 R497.5 Z{var.zpos+45.5}
G2 X497.5 Y152.5 R497.5 Z{var.zpos+45.5}
G2 X-497.5 Y152.5 R497.5 Z{var.zpos+46.0}
G2 X497.5 Y152.5 R497.5 Z{var.zpos+46.0}
G2 X-497.5 Y152.5 R497.5 Z{var.zpos+46.5}
G2 X497.5 Y152.5 R497.5 Z{var.zpos+46.5}
G2 X-497.5 Y152.5 R497.5 Z{var.zpos+47.0}
G2 X497.5 Y152.5 R497.5 Z{var.zpos+47.0}
G2 X-497.5 Y152.5 R497.5 Z{var.zpos+47.5}
G2 X497.5 Y152.5 R497.5 Z{var.zpos+47.5}
G2 X-497.5 Y152.5 R497.5 Z{var.zpos+48.0}
G2 X497.5 Y152.5 R497.5 Z{var.zpos+48.0}
G2 X-497.5 Y152.5 R497.5 Z{var.zpos+48.5}
G2 X497.5 Y152.5 R497.5 Z{var.zpos+48.5}
G2 X-497.5 Y152.5 R497.5 Z{var.zpos+49.0}
G2 X497.5 Y152.5 R497.5 Z{var.zpos+49.0}
G2 X-497.5 Y152.5 R497.5 Z{var.zpos+49.5}
G2 X497.5 Y152.5 R497.5 Z{var.zpos+49.5}
G2 X-497.5 Y152.5 R497.5 Z{var.zpos+50.0}
G2 X497.5 Y152.5 R497.5 Z{var.zpos+50.0}
G2 X-497.5 Y152.5 R497.5 Z{var.zpos+50.5}
G2 X497.5 Y152.5 R497.5 Z{var.zpos+50.5}
G2 X-497.5 Y152.5 R497.5 Z{var.zpos+51.0}
G2 X497.5 Y152.5 R497.5 Z{var.zpos+51.0}
G2 X-497.5 Y152.5 R497.5 Z{var.zpos+51.5}
G2 X497.5 Y152.5 R497.5 Z{var.zpos+51.5}
G2 X-497.5 Y152.5 R497.5 Z{var.zpos+52.0}
G2 X497.5 Y152.5 R497.5 Z{var.zpos+52.0}
G2 X-497.5 Y152.5 R497.5 Z{var.zpos+52.5}
G2 X497.5 Y152.5 R497.5 Z{var.zpos+52.5}
G2 X-497.5 Y152.5 R497.5 Z{var.zpos+53.0}
G2 X497.5 Y152.5 R497.5 Z{var.zpos+53.0}
G2 X-497.5 Y152.5 R497.5 Z{var.zpos+53.5}
G2 X497.5 Y152.5 R497.5 Z{var.zpos+53.5}
G2 X-497.5 Y152.5 R497.5 Z{var.zpos+54.0}
G2 X497.5 Y152.5 R497.5 Z{var.zpos+54.0}
G2 X-497.5 Y152.5 R497.5 Z{var.zpos+54.5}
G2 X497.5 Y152.5 R497.5 Z{var.zpos+54.5}
G2 X-497.5 Y152.5 R497.5 Z{var.zpos+55.0}
G2 X497.5 Y152.5 R497.5 Z{var.zpos+55.0}
G2 X-497.5 Y152.5 R497.5 Z{var.zpos+55.5}
G2 X497.5 Y152.5 R497.5 Z{var.zpos+55.5}
G2 X-497.5 Y152.5 R497.5 Z{var.zpos+56.0}
G2 X497.5 Y152.5 R497.5 Z{var.zpos+56.0}
G2 X-497.5 Y152.5 R497.5 Z{var.zpos+56.5}
G2 X497.5 Y152.5 R497.5 Z{var.zpos+56.5}
G2 X-497.5 Y152.5 R497.5 Z{var.zpos+57.0}
G2 X497.5 Y152.5 R497.5 Z{var.zpos+57.0}
G2 X-497.5 Y152.5 R497.5 Z{var.zpos+57.5}
G2 X497.5 Y152.5 R497.5 Z{var.zpos+57.5}
G2 X-497.5 Y152.5 R497.5 Z{var.zpos+58.0}
G2 X497.5 Y152.5 R497.5 Z{var.zpos+58.0}
G2 X-497.5 Y152.5 R497.5 Z{var.zpos+58.5}
G2 X497.5 Y152.5 R497.5 Z{var.zpos+58.5}
G2 X-497.5 Y152.5 R497.5 Z{var.zpos+59.0}
G2 X497.5 Y152.5 R497.5 Z{var.zpos+59.0}
G2 X-497.5 Y152.5 R497.5 Z{var.zpos+59.5}
G2 X497.5 Y152.5 R497.5 Z{var.zpos+59.5}
G2 X-497.5 Y152.5 R497.5 Z{var.zpos+60.0}
G2 X497.5 Y152.5 R497.5 Z{var.zpos+60.0}
G2 X-497.5 Y152.5 R497.5 Z{var.zpos+60.5}
G2 X497.5 Y152.5 R497.5 Z{var.zpos+60.5}
G2 X-497.5 Y152.5 R497.5 Z{var.zpos+61.0}
G2 X497.5 Y152.5 R497.5 Z{var.zpos+61.0}
G2 X-497.5 Y152.5 R497.5 Z{var.zpos+61.5}
G2 X497.5 Y152.5 R497.5 Z{var.zpos+61.5}
G2 X-497.5 Y152.5 R497.5 Z{var.zpos+62.0}
G2 X497.5 Y152.5 R497.5 Z{var.zpos+62.0}
G2 X-497.5 Y152.5 R497.5 Z{var.zpos+62.5}
G2 X497.5 Y152.5 R497.5 Z{var.zpos+62.5}
G2 X-497.5 Y152.5 R497.5 Z{var.zpos+63.0}
G2 X497.5 Y152.5 R497.5 Z{var.zpos+63.0}
G2 X-497.5 Y152.5 R497.5 Z{var.zpos+63.5}
G2 X497.5 Y152.5 R497.5 Z{var.zpos+63.5}
G2 X-497.5 Y152.5 R497.5 Z{var.zpos+64.0}
G2 X497.5 Y152.5 R497.5 Z{var.zpos+64.0}
G2 X-497.5 Y152.5 R497.5 Z{var.zpos+64.5}
G2 X497.5 Y152.5 R497.5 Z{var.zpos+64.5}
G2 X-497.5 Y152.5 R497.5 Z{var.zpos+65.0}
G2 X497.5 Y152.5 R497.5 Z{var.zpos+65.0}
G2 X-497.5 Y152.5 R497.5 Z{var.zpos+65.5}
G2 X497.5 Y152.5 R497.5 Z{var.zpos+65.5}
G2 X-497.5 Y152.5 R497.5 Z{var.zpos+66.0}
G2 X497.5 Y152.5 R497.5 Z{var.zpos+66.0}
G2 X-497.5 Y152.5 R497.5 Z{var.zpos+66.5}
G2 X497.5 Y152.5 R497.5 Z{var.zpos+66.5}
G2 X-497.5 Y152.5 R497.5 Z{var.zpos+67.0}
G2 X497.5 Y152.5 R497.5 Z{var.zpos+67.0}
G2 X-497.5 Y152.5 R497.5 Z{var.zpos+67.5}
G2 X497.5 Y152.5 R497.5 Z{var.zpos+67.5}
G2 X-497.5 Y152.5 R497.5 Z{var.zpos+68.0}
G2 X497.5 Y152.5 R497.5 Z{var.zpos+68.0}
G2 X-497.5 Y152.5 R497.5 Z{var.zpos+68.5}
G2 X497.5 Y152.5 R497.5 Z{var.zpos+68.5}
G2 X-497.5 Y152.5 R497.5 Z{var.zpos+69.0}
G2 X497.5 Y152.5 R497.5 Z{var.zpos+69.0}
G2 X-497.5 Y152.5 R497.5 Z{var.zpos+69.5}
G2 X497.5 Y152.5 R497.5 Z{var.zpos+69.5}
G2 X-497.5 Y152.5 R497.5 Z{var.zpos+70.0}
G2 X497.5 Y152.5 R497.5 Z{var.zpos+70.0}
G2 X-497.5 Y152.5 R497.5 Z{var.zpos+70.5}
G2 X497.5 Y152.5 R497.5 Z{var.zpos+70.5}
G2 X-497.5 Y152.5 R497.5 Z{var.zpos+71.0}
G2 X497.5 Y152.5 R497.5 Z{var.zpos+71.0}
G2 X-497.5 Y152.5 R497.5 Z{var.zpos+71.5}
G2 X497.5 Y152.5 R497.5 Z{var.zpos+71.5}
G2 X-497.5 Y152.5 R497.5 Z{var.zpos+72.0}
G2 X497.5 Y152.5 R497.5 Z{var.zpos+72.0}
G2 X-497.5 Y152.5 R497.5 Z{var.zpos+72.5}
G2 X497.5 Y152.5 R497.5 Z{var.zpos+72.5}
G2 X-497.5 Y152.5 R497.5 Z{var.zpos+73.0}
G2 X497.5 Y152.5 R497.5 Z{var.zpos+73.0}
G2 X-497.5 Y152.5 R497.5 Z{var.zpos+73.5}
G2 X497.5 Y152.5 R497.5 Z{var.zpos+73.5}
G2 X-497.5 Y152.5 R497.5 Z{var.zpos+74.0}
G2 X497.5 Y152.5 R497.5 Z{var.zpos+74.0}
G2 X-497.5 Y152.5 R497.5 Z{var.zpos+74.5}
G2 X497.5 Y152.5 R497.5 Z{var.zpos+74.5}
G2 X-497.5 Y152.5 R497.5 Z{var.zpos+75.0}
G2 X497.5 Y152.5 R497.5 Z{var.zpos+75.0}
G2 X-497.5 Y152.5 R497.5 Z{var.zpos+75.5}
G2 X497.5 Y152.5 R497.5 Z{var.zpos+75.5}
G2 X-497.5 Y152.5 R497.5 Z{var.zpos+76.0}
G2 X497.5 Y152.5 R497.5 Z{var.zpos+76.0}
G2 X-497.5 Y152.5 R497.5 Z{var.zpos+76.5}
G2 X497.5 Y152.5 R497.5 Z{var.zpos+76.5}
G2 X-497.5 Y152.5 R497.5 Z{var.zpos+77.0}
G2 X497.5 Y152.5 R497.5 Z{var.zpos+77.0}
G2 X-497.5 Y152.5 R497.5 Z{var.zpos+77.5}
G2 X497.5 Y152.5 R497.5 Z{var.zpos+77.5}
G2 X-497.5 Y152.5 R497.5 Z{var.zpos+78.0}
G2 X497.5 Y152.5 R497.5 Z{var.zpos+78.0}
G2 X-497.5 Y152.5 R497.5 Z{var.zpos+78.5}
G2 X497.5 Y152.5 R497.5 Z{var.zpos+78.5}
G2 X-497.5 Y152.5 R497.5 Z{var.zpos+79.0}
G2 X497.5 Y152.5 R497.5 Z{var.zpos+79.0}
G2 X-497.5 Y152.5 R497.5 Z{var.zpos+79.5}
G2 X497.5 Y152.5 R497.5 Z{var.zpos+79.5}
G2 X-497.5 Y152.5 R497.5 Z{var.zpos+80.0}
G2 X497.5 Y152.5 R497.5 Z{var.zpos+80.0}
G2 X-497.5 Y152.5 R497.5 Z{var.zpos+80.5}
G2 X497.5 Y152.5 R497.5 Z{var.zpos+80.5}
G2 X-497.5 Y152.5 R497.5 Z{var.zpos+81.0}
G2 X497.5 Y152.5 R497.5 Z{var.zpos+81.0}
G2 X-497.5 Y152.5 R497.5 Z{var.zpos+81.5}
G2 X497.5 Y152.5 R497.5 Z{var.zpos+81.5}
G2 X-497.5 Y152.5 R497.5 Z{var.zpos+82.0}
G2 X497.5 Y152.5 R497.5 Z{var.zpos+82.0}
G2 X-497.5 Y152.5 R497.5 Z{var.zpos+82.5}
G2 X497.5 Y152.5 R497.5 Z{var.zpos+82.5}
G2 X-497.5 Y152.5 R497.5 Z{var.zpos+83.0}
G2 X497.5 Y152.5 R497.5 Z{var.zpos+83.0}
G2 X-497.5 Y152.5 R497.5 Z{var.zpos+83.5}
G2 X497.5 Y152.5 R497.5 Z{var.zpos+83.5}
G2 X-497.5 Y152.5 R497.5 Z{var.zpos+84.0}
G2 X497.5 Y152.5 R497.5 Z{var.zpos+84.0}
G2 X-497.5 Y152.5 R497.5 Z{var.zpos+84.5}
G2 X497.5 Y152.5 R497.5 Z{var.zpos+84.5}
G2 X-497.5 Y152.5 R497.5 Z{var.zpos+85.0}
G2 X497.5 Y152.5 R497.5 Z{var.zpos+85.0}
G2 X-497.5 Y152.5 R497.5 Z{var.zpos+85.5}
G2 X497.5 Y152.5 R497.5 Z{var.zpos+85.5}
G2 X-497.5 Y152.5 R497.5 Z{var.zpos+86.0}
G2 X497.5 Y152.5 R497.5 Z{var.zpos+86.0}
G2 X-497.5 Y152.5 R497.5 Z{var.zpos+86.5}
G2 X497.5 Y152.5 R497.5 Z{var.zpos+86.5}
G2 X-497.5 Y152.5 R497.5 Z{var.zpos+87.0}
G2 X497.5 Y152.5 R497.5 Z{var.zpos+87.0}
G2 X-497.5 Y152.5 R497.5 Z{var.zpos+87.5}
G2 X497.5 Y152.5 R497.5 Z{var.zpos+87.5}
G2 X-497.5 Y152.5 R497.5 Z{var.zpos+88.0}
G2 X497.5 Y152.5 R497.5 Z{var.zpos+88.0}
G2 X-497.5 Y152.5 R497.5 Z{var.zpos+88.5}
G2 X497.5 Y152.5 R497.5 Z{var.zpos+88.5}
G2 X-497.5 Y152.5 R497.5 Z{var.zpos+89.0}
G2 X497.5 Y152.5 R497.5 Z{var.zpos+89.0}
G2 X-497.5 Y152.5 R497.5 Z{var.zpos+89.5}
G2 X497.5 Y152.5 R497.5 Z{var.zpos+89.5}
G2 X-497.5 Y152.5 R497.5 Z{var.zpos+90.0}
G2 X497.5 Y152.5 R497.5 Z{var.zpos+90.0}
G2 X-497.5 Y152.5 R497.5 Z{var.zpos+90.5}
G2 X497.5 Y152.5 R497.5 Z{var.zpos+90.5}
G2 X-497.5 Y152.5 R497.5 Z{var.zpos+91.0}
G2 X497.5 Y152.5 R497.5 Z{var.zpos+91.0}
G2 X-497.5 Y152.5 R497.5 Z{var.zpos+91.5}
G2 X497.5 Y152.5 R497.5 Z{var.zpos+91.5}
G2 X-497.5 Y152.5 R497.5 Z{var.zpos+92.0}
G2 X497.5 Y152.5 R497.5 Z{var.zpos+92.0}
G2 X-497.5 Y152.5 R497.5 Z{var.zpos+92.5}
G2 X497.5 Y152.5 R497.5 Z{var.zpos+92.5}
G2 X-497.5 Y152.5 R497.5 Z{var.zpos+93.0}
G2 X497.5 Y152.5 R497.5 Z{var.zpos+93.0}
G2 X-497.5 Y152.5 R497.5 Z{var.zpos+93.5}
G2 X497.5 Y152.5 R497.5 Z{var.zpos+93.5}
G2 X-497.5 Y152.5 R497.5 Z{var.zpos+94.0}
G2 X497.5 Y152.5 R497.5 Z{var.zpos+94.0}
G2 X-497.5 Y152.5 R497.5 Z{var.zpos+94.5}
G2 X497.5 Y152.5 R497.5 Z{var.zpos+94.5}
G2 X-497.5 Y152.5 R497.5 Z{var.zpos+95.0}
G2 X497.5 Y152.5 R497.5 Z{var.zpos+95.0}
G2 X-497.5 Y152.5 R497.5 Z{var.zpos+95.5}
G2 X497.5 Y152.5 R497.5 Z{var.zpos+95.5}
G2 X-497.5 Y152.5 R497.5 Z{var.zpos+96.0}
G2 X497.5 Y152.5 R497.5 Z{var.zpos+96.0}
G2 X-497.5 Y152.5 R497.5 Z{var.zpos+96.5}
G2 X497.5 Y152.5 R497.5 Z{var.zpos+96.5}
G2 X-497.5 Y152.5 R497.5 Z{var.zpos+97.0}
G2 X497.5 Y152.5 R497.5 Z{var.zpos+97.0}
G2 X-497.5 Y152.5 R497.5 Z{var.zpos+97.5}
G2 X497.5 Y152.5 R497.5 Z{var.zpos+97.5}
G2 X-497.5 Y152.5 R497.5 Z{var.zpos+98.0}
G2 X497.5 Y152.5 R497.5 Z{var.zpos+98.0}
G2 X-497.5 Y152.5 R497.5 Z{var.zpos+98.5}
G2 X497.5 Y152.5 R497.5 Z{var.zpos+98.5}
G2 X-497.5 Y152.5 R497.5 Z{var.zpos+99.0}
G2 X497.5 Y152.5 R497.5 Z{var.zpos+99.0}
G2 X-497.5 Y152.5 R497.5 Z{var.zpos+99.5}
G2 X497.5 Y152.5 R497.5 Z{var.zpos+99.5}
G2 X-497.5 Y152.5 R497.5 Z{var.zpos+100.0}
G2 X497.5 Y152.5 R497.5 Z{var.zpos+100.0}
G2 X-497.5 Y152.5 R497.5 Z{var.zpos+100.5}
G2 X497.5 Y152.5 R497.5 Z{var.zpos+100.5}
G2 X-497.5 Y152.5 R497.5 Z{var.zpos+101.0}
G2 X497.5 Y152.5 R497.5 Z{var.zpos+101.0}
G2 X-497.5 Y152.5 R497.5 Z{var.zpos+101.5}
G2 X497.5 Y152.5 R497.5 Z{var.zpos+101.5}
G2 X-497.5 Y152.5 R497.5 Z{var.zpos+102.0}
G2 X497.5 Y152.5 R497.5 Z{var.zpos+102.0}
G2 X-497.5 Y152.5 R497.5 Z{var.zpos+102.5}
G2 X497.5 Y152.5 R497.5 Z{var.zpos+102.5}
G2 X-497.5 Y152.5 R497.5 Z{var.zpos+103.0}
G2 X497.5 Y152.5 R497.5 Z{var.zpos+103.0}
G2 X-497.5 Y152.5 R497.5 Z{var.zpos+103.5}
G2 X497.5 Y152.5 R497.5 Z{var.zpos+103.5}
G2 X-497.5 Y152.5 R497.5 Z{var.zpos+104.0}
G2 X497.5 Y152.5 R497.5 Z{var.zpos+104.0}
G2 X-497.5 Y152.5 R497.5 Z{var.zpos+104.5}
G2 X497.5 Y152.5 R497.5 Z{var.zpos+104.5}
G2 X-497.5 Y152.5 R497.5 Z{var.zpos+105.0}
G2 X497.5 Y152.5 R497.5 Z{var.zpos+105.0}
G2 X-497.5 Y152.5 R497.5 Z{var.zpos+105.5}
G2 X497.5 Y152.5 R497.5 Z{var.zpos+105.5}
G2 X-497.5 Y152.5 R497.5 Z{var.zpos+106.0}
G2 X497.5 Y152.5 R497.5 Z{var.zpos+106.0}
G2 X-497.5 Y152.5 R497.5 Z{var.zpos+106.5}
G2 X497.5 Y152.5 R497.5 Z{var.zpos+106.5}
G2 X-497.5 Y152.5 R497.5 Z{var.zpos+107.0}
G2 X497.5 Y152.5 R497.5 Z{var.zpos+107.0}
G2 X-497.5 Y152.5 R497.5 Z{var.zpos+107.5}
G2 X497.5 Y152.5 R497.5 Z{var.zpos+107.5}
G2 X-497.5 Y152.5 R497.5 Z{var.zpos+108.0}
G2 X497.5 Y152.5 R497.5 Z{var.zpos+108.0}
G2 X-497.5 Y152.5 R497.5 Z{var.zpos+108.5}
G2 X497.5 Y152.5 R497.5 Z{var.zpos+108.5}
G2 X-497.5 Y152.5 R497.5 Z{var.zpos+109.0}
G2 X497.5 Y152.5 R497.5 Z{var.zpos+109.0}
G2 X-497.5 Y152.5 R497.5 Z{var.zpos+109.5}
G2 X497.5 Y152.5 R497.5 Z{var.zpos+109.5}
G2 X-497.5 Y152.5 R497.5 Z{var.zpos+110.0}
G2 X497.5 Y152.5 R497.5 Z{var.zpos+110.0}
G2 X-497.5 Y152.5 R497.5 Z{var.zpos+110.5}
G2 X497.5 Y152.5 R497.5 Z{var.zpos+110.5}
G2 X-497.5 Y152.5 R497.5 Z{var.zpos+111.0}
G2 X497.5 Y152.5 R497.5 Z{var.zpos+111.0}
G2 X-497.5 Y152.5 R497.5 Z{var.zpos+111.5}
G2 X497.5 Y152.5 R497.5 Z{var.zpos+111.5}
G2 X-497.5 Y152.5 R497.5 Z{var.zpos+112.0}
G2 X497.5 Y152.5 R497.5 Z{var.zpos+112.0}
G2 X-497.5 Y152.5 R497.5 Z{var.zpos+112.5}
G2 X497.5 Y152.5 R497.5 Z{var.zpos+112.5}
G2 X-497.5 Y152.5 R497.5 Z{var.zpos+113.0}
G2 X497.5 Y152.5 R497.5 Z{var.zpos+113.0}
G2 X-497.5 Y152.5 R497.5 Z{var.zpos+113.5}
G2 X497.5 Y152.5 R497.5 Z{var.zpos+113.5}
G2 X-497.5 Y152.5 R497.5 Z{var.zpos+114.0}
G2 X497.5 Y152.5 R497.5 Z{var.zpos+114.0}
G2 X-497.5 Y152.5 R497.5 Z{var.zpos+114.5}
G2 X497.5 Y152.5 R497.5 Z{var.zpos+114.5}
G2 X-497.5 Y152.5 R497.5 Z{var.zpos+115.0}
G2 X497.5 Y152.5 R497.5 Z{var.zpos+115.0}
G2 X-497.5 Y152.5 R497.5 Z{var.zpos+115.5}
G2 X497.5 Y152.5 R497.5 Z{var.zpos+115.5}
G2 X-497.5 Y152.5 R497.5 Z{var.zpos+116.0}
G2 X497.5 Y152.5 R497.5 Z{var.zpos+116.0}
G2 X-497.5 Y152.5 R497.5 Z{var.zpos+116.5}
G2 X497.5 Y152.5 R497.5 Z{var.zpos+116.5}
G2 X-497.5 Y152.5 R497.5 Z{var.zpos+117.0}
G2 X497.5 Y152.5 R497.5 Z{var.zpos+117.0}
G2 X-497.5 Y152.5 R497.5 Z{var.zpos+117.5}
G2 X497.5 Y152.5 R497.5 Z{var.zpos+117.5}
G2 X-497.5 Y152.5 R497.5 Z{var.zpos+118.0}
G2 X497.5 Y152.5 R497.5 Z{var.zpos+118.0}
G2 X-497.5 Y152.5 R497.5 Z{var.zpos+118.5}
G2 X497.5 Y152.5 R497.5 Z{var.zpos+118.5}
G2 X-497.5 Y152.5 R497.5 Z{var.zpos+119.0}
G2 X497.5 Y152.5 R497.5 Z{var.zpos+119.0}
G2 X-497.5 Y152.5 R497.5 Z{var.zpos+119.5}
G2 X497.5 Y152.5 R497.5 Z{var.zpos+119.5}
G2 X-497.5 Y152.5 R497.5 Z{var.zpos+120.0}
G2 X497.5 Y152.5 R497.5 Z{var.zpos+120.0}
G2 X-497.5 Y152.5 R497.5 Z{var.zpos+120.5}
G2 X497.5 Y152.5 R497.5 Z{var.zpos+120.5}
G2 X-497.5 Y152.5 R497.5 Z{var.zpos+121.0}
G2 X497.5 Y152.5 R497.5 Z{var.zpos+121.0}
G2 X-497.5 Y152.5 R497.5 Z{var.zpos+121.5}
G2 X497.5 Y152.5 R497.5 Z{var.zpos+121.5}
G2 X-497.5 Y152.5 R497.5 Z{var.zpos+122.0}
G2 X497.5 Y152.5 R497.5 Z{var.zpos+122.0}
G2 X-497.5 Y152.5 R497.5 Z{var.zpos+122.5}
G2 X497.5 Y152.5 R497.5 Z{var.zpos+122.5}
G2 X-497.5 Y152.5 R497.5 Z{var.zpos+123.0}
G2 X497.5 Y152.5 R497.5 Z{var.zpos+123.0}
G2 X-497.5 Y152.5 R497.5 Z{var.zpos+123.5}
G2 X497.5 Y152.5 R497.5 Z{var.zpos+123.5}
G2 X-497.5 Y152.5 R497.5 Z{var.zpos+124.0}
G2 X497.5 Y152.5 R497.5 Z{var.zpos+124.0}
G2 X-497.5 Y152.5 R497.5 Z{var.zpos+124.5}
G2 X497.5 Y152.5 R497.5 Z{var.zpos+124.5}
G2 X-497.5 Y152.5 R497.5 Z{var.zpos+125.0}
G2 X497.5 Y152.5 R497.5 Z{var.zpos+125.0}
G2 X-497.5 Y152.5 R497.5 Z{var.zpos+125.5}
G2 X497.5 Y152.5 R497.5 Z{var.zpos+125.5}
G2 X-497.5 Y152.5 R497.5 Z{var.zpos+126.0}
G2 X497.5 Y152.5 R497.5 Z{var.zpos+126.0}
G2 X-497.5 Y152.5 R497.5 Z{var.zpos+126.5}
G2 X497.5 Y152.5 R497.5 Z{var.zpos+126.5}
G2 X-497.5 Y152.5 R497.5 Z{var.zpos+127.0}
G2 X497.5 Y152.5 R497.5 Z{var.zpos+127.0}
G2 X-497.5 Y152.5 R497.5 Z{var.zpos+127.5}
G2 X497.5 Y152.5 R497.5 Z{var.zpos+127.5}
G2 X-497.5 Y152.5 R497.5 Z{var.zpos+128.0}
G2 X497.5 Y152.5 R497.5 Z{var.zpos+128.0}
G2 X-497.5 Y152.5 R497.5 Z{var.zpos+128.5}
G2 X497.5 Y152.5 R497.5 Z{var.zpos+128.5}
G2 X-497.5 Y152.5 R497.5 Z{var.zpos+129.0}
G2 X497.5 Y152.5 R497.5 Z{var.zpos+129.0}
G2 X-497.5 Y152.5 R497.5 Z{var.zpos+129.5}
G2 X497.5 Y152.5 R497.5 Z{var.zpos+129.5}
G2 X-497.5 Y152.5 R497.5 Z{var.zpos+130.0}
G2 X497.5 Y152.5 R497.5 Z{var.zpos+130.0}
G2 X-497.5 Y152.5 R497.5 Z{var.zpos+130.5}
G2 X497.5 Y152.5 R497.5 Z{var.zpos+130.5}
G2 X-497.5 Y152.5 R497.5 Z{var.zpos+131.0}
G2 X497.5 Y152.5 R497.5 Z{var.zpos+131.0}
G2 X-497.5 Y152.5 R497.5 Z{var.zpos+131.5}
G2 X497.5 Y152.5 R497.5 Z{var.zpos+131.5}
G2 X-497.5 Y152.5 R497.5 Z{var.zpos+132.0}
G2 X497.5 Y152.5 R497.5 Z{var.zpos+132.0}
G2 X-497.5 Y152.5 R497.5 Z{var.zpos+132.5}
G2 X497.5 Y152.5 R497.5 Z{var.zpos+132.5}
G2 X-497.5 Y152.5 R497.5 Z{var.zpos+133.0}
G2 X497.5 Y152.5 R497.5 Z{var.zpos+133.0}
G2 X-497.5 Y152.5 R497.5 Z{var.zpos+133.5}
G2 X497.5 Y152.5 R497.5 Z{var.zpos+133.5}
G2 X-497.5 Y152.5 R497.5 Z{var.zpos+134.0}
G2 X497.5 Y152.5 R497.5 Z{var.zpos+134.0}
G2 X-497.5 Y152.5 R497.5 Z{var.zpos+134.5}
G2 X497.5 Y152.5 R497.5 Z{var.zpos+134.5}
G2 X-497.5 Y152.5 R497.5 Z{var.zpos+135.0}
G2 X497.5 Y152.5 R497.5 Z{var.zpos+135.0}
G2 X-497.5 Y152.5 R497.5 Z{var.zpos+135.5}
G2 X497.5 Y152.5 R497.5 Z{var.zpos+135.5}
G2 X-497.5 Y152.5 R497.5 Z{var.zpos+136.0}
G2 X497.5 Y152.5 R497.5 Z{var.zpos+136.0}
G2 X-497.5 Y152.5 R497.5 Z{var.zpos+136.5}
G2 X497.5 Y152.5 R497.5 Z{var.zpos+136.5}
G2 X-497.5 Y152.5 R497.5 Z{var.zpos+137.0}
G2 X497.5 Y152.5 R497.5 Z{var.zpos+137.0}
G2 X-497.5 Y152.5 R497.5 Z{var.zpos+137.5}
G2 X497.5 Y152.5 R497.5 Z{var.zpos+137.5}
G2 X-497.5 Y152.5 R497.5 Z{var.zpos+138.0}
G2 X497.5 Y152.5 R497.5 Z{var.zpos+138.0}
G2 X-497.5 Y152.5 R497.5 Z{var.zpos+138.5}
G2 X497.5 Y152.5 R497.5 Z{var.zpos+138.5}
G2 X-497.5 Y152.5 R497.5 Z{var.zpos+139.0}
G2 X497.5 Y152.5 R497.5 Z{var.zpos+139.0}
G2 X-497.5 Y152.5 R497.5 Z{var.zpos+139.5}
G2 X497.5 Y152.5 R497.5 Z{var.zpos+139.5}
G2 X-497.5 Y152.5 R497.5 Z{var.zpos+140.0}
G2 X497.5 Y152.5 R497.5 Z{var.zpos+140.0}
G2 X-497.5 Y152.5 R497.5 Z{var.zpos+140.5}
G2 X497.5 Y152.5 R497.5 Z{var.zpos+140.5}
G2 X-497.5 Y152.5 R497.5 Z{var.zpos+141.0}
G2 X497.5 Y152.5 R497.5 Z{var.zpos+141.0}
G2 X-497.5 Y152.5 R497.5 Z{var.zpos+141.5}
G2 X497.5 Y152.5 R497.5 Z{var.zpos+141.5}
G2 X-497.5 Y152.5 R497.5 Z{var.zpos+142.0}
G2 X497.5 Y152.5 R497.5 Z{var.zpos+142.0}
G2 X-497.5 Y152.5 R497.5 Z{var.zpos+142.5}
G2 X497.5 Y152.5 R497.5 Z{var.zpos+142.5}
G2 X-497.5 Y152.5 R497.5 Z{var.zpos+143.0}
G2 X497.5 Y152.5 R497.5 Z{var.zpos+143.0}
G2 X-497.5 Y152.5 R497.5 Z{var.zpos+143.5}
G2 X497.5 Y152.5 R497.5 Z{var.zpos+143.5}
G2 X-497.5 Y152.5 R497.5 Z{var.zpos+144.0}
G2 X497.5 Y152.5 R497.5 Z{var.zpos+144.0}
G2 X-497.5 Y152.5 R497.5 Z{var.zpos+144.5}
G2 X497.5 Y152.5 R497.5 Z{var.zpos+144.5}
G2 X-497.5 Y152.5 R497.5 Z{var.zpos+145.0}
G2 X497.5 Y152.5 R497.5 Z{var.zpos+145.0}
G2 X-497.5 Y152.5 R497.5 Z{var.zpos+145.5}
G2 X497.5 Y152.5 R497.5 Z{var.zpos+145.5}
G2 X-497.5 Y152.5 R497.5 Z{var.zpos+146.0}
G2 X497.5 Y152.5 R497.5 Z{var.zpos+146.0}
G2 X-497.5 Y152.5 R497.5 Z{var.zpos+146.5}
G2 X497.5 Y152.5 R497.5 Z{var.zpos+146.5}
G2 X-497.5 Y152.5 R497.5 Z{var.zpos+147.0}
G2 X497.5 Y152.5 R497.5 Z{var.zpos+147.0}
G2 X-497.5 Y152.5 R497.5 Z{var.zpos+147.5}
G2 X497.5 Y152.5 R497.5 Z{var.zpos+147.5}
G2 X-497.5 Y152.5 R497.5 Z{var.zpos+148.0}
G2 X497.5 Y152.5 R497.5 Z{var.zpos+148.0}
G2 X-497.5 Y152.5 R497.5 Z{var.zpos+148.5}
G2 X497.5 Y152.5 R497.5 Z{var.zpos+148.5}
G2 X-497.5 Y152.5 R497.5 Z{var.zpos+149.0}
G2 X497.5 Y152.5 R497.5 Z{var.zpos+149.0}
G2 X-497.5 Y152.5 R497.5 Z{var.zpos+149.5}
G2 X497.5 Y152.5 R497.5 Z{var.zpos+149.5}
G2 X-497.5 Y152.5 R497.5 Z{var.zpos+150.0}
G2 X497.5 Y152.5 R497.5 Z{var.zpos+150.0}
G2 X-497.5 Y152.5 R497.5 Z{var.zpos+150.5}
G2 X497.5 Y152.5 R497.5 Z{var.zpos+150.5}
G2 X-497.5 Y152.5 R497.5 Z{var.zpos+151.0}
G2 X497.5 Y152.5 R497.5 Z{var.zpos+151.0}
G2 X-497.5 Y152.5 R497.5 Z{var.zpos+151.5}
G2 X497.5 Y152.5 R497.5 Z{var.zpos+151.5}
G2 X-497.5 Y152.5 R497.5 Z{var.zpos+152.0}
G2 X497.5 Y152.5 R497.5 Z{var.zpos+152.0}
G2 X-497.5 Y152.5 R497.5 Z{var.zpos+152.5}
G2 X497.5 Y152.5 R497.5 Z{var.zpos+152.5}
G2 X-497.5 Y152.5 R497.5 Z{var.zpos+153.0}
G2 X497.5 Y152.5 R497.5 Z{var.zpos+153.0}
G2 X-497.5 Y152.5 R497.5 Z{var.zpos+153.5}
G2 X497.5 Y152.5 R497.5 Z{var.zpos+153.5}
G2 X-497.5 Y152.5 R497.5 Z{var.zpos+154.0}
G2 X497.5 Y152.5 R497.5 Z{var.zpos+154.0}
G2 X-497.5 Y152.5 R497.5 Z{var.zpos+154.5}
G2 X497.5 Y152.5 R497.5 Z{var.zpos+154.5}
G2 X-497.5 Y152.5 R497.5 Z{var.zpos+155.0}
G2 X497.5 Y152.5 R497.5 Z{var.zpos+155.0}
G2 X-497.5 Y152.5 R497.5 Z{var.zpos+155.5}
G2 X497.5 Y152.5 R497.5 Z{var.zpos+155.5}
G2 X-497.5 Y152.5 R497.5 Z{var.zpos+156.0}
G2 X497.5 Y152.5 R497.5 Z{var.zpos+156.0}
G2 X-497.5 Y152.5 R497.5 Z{var.zpos+156.5}
G2 X497.5 Y152.5 R497.5 Z{var.zpos+156.5}
G2 X-497.5 Y152.5 R497.5 Z{var.zpos+157.0}
G2 X497.5 Y152.5 R497.5 Z{var.zpos+157.0}
G2 X-497.5 Y152.5 R497.5 Z{var.zpos+157.5}
G2 X497.5 Y152.5 R497.5 Z{var.zpos+157.5}
G2 X-497.5 Y152.5 R497.5 Z{var.zpos+158.0}
G2 X497.5 Y152.5 R497.5 Z{var.zpos+158.0}
G2 X-497.5 Y152.5 R497.5 Z{var.zpos+158.5}
G2 X497.5 Y152.5 R497.5 Z{var.zpos+158.5}
G2 X-497.5 Y152.5 R497.5 Z{var.zpos+159.0}
G2 X497.5 Y152.5 R497.5 Z{var.zpos+159.0}
G2 X-497.5 Y152.5 R497.5 Z{var.zpos+159.5}
G2 X497.5 Y152.5 R497.5 Z{var.zpos+159.5}
G2 X-497.5 Y152.5 R497.5 Z{var.zpos+160.0}
G2 X497.5 Y152.5 R497.5 Z{var.zpos+160.0}
G2 X-497.5 Y152.5 R497.5 Z{var.zpos+160.5}
G2 X497.5 Y152.5 R497.5 Z{var.zpos+160.5}
G2 X-497.5 Y152.5 R497.5 Z{var.zpos+161.0}
G2 X497.5 Y152.5 R497.5 Z{var.zpos+161.0}
G2 X-497.5 Y152.5 R497.5 Z{var.zpos+161.5}
G2 X497.5 Y152.5 R497.5 Z{var.zpos+161.5}
G2 X-497.5 Y152.5 R497.5 Z{var.zpos+162.0}
G2 X497.5 Y152.5 R497.5 Z{var.zpos+162.0}
G2 X-497.5 Y152.5 R497.5 Z{var.zpos+162.5}
G2 X497.5 Y152.5 R497.5 Z{var.zpos+162.5}
G2 X-497.5 Y152.5 R497.5 Z{var.zpos+163.0}
G2 X497.5 Y152.5 R497.5 Z{var.zpos+163.0}
G2 X-497.5 Y152.5 R497.5 Z{var.zpos+163.5}
G2 X497.5 Y152.5 R497.5 Z{var.zpos+163.5}
G2 X-497.5 Y152.5 R497.5 Z{var.zpos+164.0}
G2 X497.5 Y152.5 R497.5 Z{var.zpos+164.0}
G2 X-497.5 Y152.5 R497.5 Z{var.zpos+164.5}
G2 X497.5 Y152.5 R497.5 Z{var.zpos+164.5}
G2 X-497.5 Y152.5 R497.5 Z{var.zpos+165.0}
G2 X497.5 Y152.5 R497.5 Z{var.zpos+165.0}
G2 X-497.5 Y152.5 R497.5 Z{var.zpos+165.5}
G2 X497.5 Y152.5 R497.5 Z{var.zpos+165.5}
G2 X-497.5 Y152.5 R497.5 Z{var.zpos+166.0}
G2 X497.5 Y152.5 R497.5 Z{var.zpos+166.0}
G2 X-497.5 Y152.5 R497.5 Z{var.zpos+166.5}
G2 X497.5 Y152.5 R497.5 Z{var.zpos+166.5}
G2 X-497.5 Y152.5 R497.5 Z{var.zpos+167.0}
G2 X497.5 Y152.5 R497.5 Z{var.zpos+167.0}
G2 X-497.5 Y152.5 R497.5 Z{var.zpos+167.5}
G2 X497.5 Y152.5 R497.5 Z{var.zpos+167.5}
G2 X-497.5 Y152.5 R497.5 Z{var.zpos+168.0}
G2 X497.5 Y152.5 R497.5 Z{var.zpos+168.0}
G2 X-497.5 Y152.5 R497.5 Z{var.zpos+168.5}
G2 X497.5 Y152.5 R497.5 Z{var.zpos+168.5}
G2 X-497.5 Y152.5 R497.5 Z{var.zpos+169.0}
G2 X497.5 Y152.5 R497.5 Z{var.zpos+169.0}
G2 X-497.5 Y152.5 R497.5 Z{var.zpos+169.5}
G2 X497.5 Y152.5 R497.5 Z{var.zpos+169.5}
G2 X-497.5 Y152.5 R497.5 Z{var.zpos+170.0}
G2 X497.5 Y152.5 R497.5 Z{var.zpos+170.0}
G2 X-497.5 Y152.5 R497.5 Z{var.zpos+170.5}
G2 X497.5 Y152.5 R497.5 Z{var.zpos+170.5}
G2 X-497.5 Y152.5 R497.5 Z{var.zpos+171.0}
G2 X497.5 Y152.5 R497.5 Z{var.zpos+171.0}
G2 X-497.5 Y152.5 R497.5 Z{var.zpos+171.5}
G2 X497.5 Y152.5 R497.5 Z{var.zpos+171.5}
G2 X-497.5 Y152.5 R497.5 Z{var.zpos+172.0}
G2 X497.5 Y152.5 R497.5 Z{var.zpos+172.0}
G2 X-497.5 Y152.5 R497.5 Z{var.zpos+172.5}
G2 X497.5 Y152.5 R497.5 Z{var.zpos+172.5}
G2 X-497.5 Y152.5 R497.5 Z{var.zpos+173.0}
G2 X497.5 Y152.5 R497.5 Z{var.zpos+173.0}
G2 X-497.5 Y152.5 R497.5 Z{var.zpos+173.5}
G2 X497.5 Y152.5 R497.5 Z{var.zpos+173.5}
G2 X-497.5 Y152.5 R497.5 Z{var.zpos+174.0}
G2 X497.5 Y152.5 R497.5 Z{var.zpos+174.0}
G2 X-497.5 Y152.5 R497.5 Z{var.zpos+174.5}
G2 X497.5 Y152.5 R497.5 Z{var.zpos+174.5}
G2 X-497.5 Y152.5 R497.5 Z{var.zpos+175.0}
G2 X497.5 Y152.5 R497.5 Z{var.zpos+175.0}
G2 X-497.5 Y152.5 R497.5 Z{var.zpos+175.5}
G2 X497.5 Y152.5 R497.5 Z{var.zpos+175.5}
G2 X-497.5 Y152.5 R497.5 Z{var.zpos+176.0}
G2 X497.5 Y152.5 R497.5 Z{var.zpos+176.0}
G2 X-497.5 Y152.5 R497.5 Z{var.zpos+176.5}
G2 X497.5 Y152.5 R497.5 Z{var.zpos+176.5}
G2 X-497.5 Y152.5 R497.5 Z{var.zpos+177.0}
G2 X497.5 Y152.5 R497.5 Z{var.zpos+177.0}
G2 X-497.5 Y152.5 R497.5 Z{var.zpos+177.5}
G2 X497.5 Y152.5 R497.5 Z{var.zpos+177.5}
G2 X-497.5 Y152.5 R497.5 Z{var.zpos+178.0}
G2 X497.5 Y152.5 R497.5 Z{var.zpos+178.0}
G2 X-497.5 Y152.5 R497.5 Z{var.zpos+178.5}
G2 X497.5 Y152.5 R497.5 Z{var.zpos+178.5}
G2 X-497.5 Y152.5 R497.5 Z{var.zpos+179.0}
G2 X497.5 Y152.5 R497.5 Z{var.zpos+179.0}
G2 X-497.5 Y152.5 R497.5 Z{var.zpos+179.5}
G2 X497.5 Y152.5 R497.5 Z{var.zpos+179.5}
G2 X-497.5 Y152.5 R497.5 Z{var.zpos+180.0}
G2 X497.5 Y152.5 R497.5 Z{var.zpos+180.0}
G2 X-497.5 Y152.5 R497.5 Z{var.zpos+180.5}
G2 X497.5 Y152.5 R497.5 Z{var.zpos+180.5}
G2 X-497.5 Y152.5 R497.5 Z{var.zpos+181.0}
G2 X497.5 Y152.5 R497.5 Z{var.zpos+181.0}
G2 X-497.5 Y152.5 R497.5 Z{var.zpos+181.5}
G2 X497.5 Y152.5 R497.5 Z{var.zpos+181.5}
G2 X-497.5 Y152.5 R497.5 Z{var.zpos+182.0}
G2 X497.5 Y152.5 R497.5 Z{var.zpos+182.0}
G2 X-497.5 Y152.5 R497.5 Z{var.zpos+182.5}
G2 X497.5 Y152.5 R497.5 Z{var.zpos+182.5}
G2 X-497.5 Y152.5 R497.5 Z{var.zpos+183.0}
G2 X497.5 Y152.5 R497.5 Z{var.zpos+183.0}
G2 X-497.5 Y152.5 R497.5 Z{var.zpos+183.5}
G2 X497.5 Y152.5 R497.5 Z{var.zpos+183.5}
G2 X-497.5 Y152.5 R497.5 Z{var.zpos+184.0}
G2 X497.5 Y152.5 R497.5 Z{var.zpos+184.0}
G2 X-497.5 Y152.5 R497.5 Z{var.zpos+184.5}
G2 X497.5 Y152.5 R497.5 Z{var.zpos+184.5}
G2 X-497.5 Y152.5 R497.5 Z{var.zpos+185.0}
G2 X497.5 Y152.5 R497.5 Z{var.zpos+185.0}
G2 X-497.5 Y152.5 R497.5 Z{var.zpos+185.5}
G2 X497.5 Y152.5 R497.5 Z{var.zpos+185.5}
G2 X-497.5 Y152.5 R497.5 Z{var.zpos+186.0}
G2 X497.5 Y152.5 R497.5 Z{var.zpos+186.0}
G2 X-497.5 Y152.5 R497.5 Z{var.zpos+186.5}
G2 X497.5 Y152.5 R497.5 Z{var.zpos+186.5}
G2 X-497.5 Y152.5 R497.5 Z{var.zpos+187.0}
G2 X497.5 Y152.5 R497.5 Z{var.zpos+187.0}
G2 X-497.5 Y152.5 R497.5 Z{var.zpos+187.5}
G2 X497.5 Y152.5 R497.5 Z{var.zpos+187.5}
G2 X-497.5 Y152.5 R497.5 Z{var.zpos+188.0}
G2 X497.5 Y152.5 R497.5 Z{var.zpos+188.0}
G2 X-497.5 Y152.5 R497.5 Z{var.zpos+188.5}
G2 X497.5 Y152.5 R497.5 Z{var.zpos+188.5}
G2 X-497.5 Y152.5 R497.5 Z{var.zpos+189.0}
G2 X497.5 Y152.5 R497.5 Z{var.zpos+189.0}
G2 X-497.5 Y152.5 R497.5 Z{var.zpos+189.5}
G2 X497.5 Y152.5 R497.5 Z{var.zpos+189.5}
G2 X-497.5 Y152.5 R497.5 Z{var.zpos+190.0}
G2 X497.5 Y152.5 R497.5 Z{var.zpos+190.0}
G2 X-497.5 Y152.5 R497.5 Z{var.zpos+190.5}
G2 X497.5 Y152.5 R497.5 Z{var.zpos+190.5}
G2 X-497.5 Y152.5 R497.5 Z{var.zpos+191.0}
G2 X497.5 Y152.5 R497.5 Z{var.zpos+191.0}
G2 X-497.5 Y152.5 R497.5 Z{var.zpos+191.5}
G2 X497.5 Y152.5 R497.5 Z{var.zpos+191.5}
G2 X-497.5 Y152.5 R497.5 Z{var.zpos+192.0}
G2 X497.5 Y152.5 R497.5 Z{var.zpos+192.0}
G2 X-497.5 Y152.5 R497.5 Z{var.zpos+192.5}
G2 X497.5 Y152.5 R497.5 Z{var.zpos+192.5}
G2 X-497.5 Y152.5 R497.5 Z{var.zpos+193.0}
G2 X497.5 Y152.5 R497.5 Z{var.zpos+193.0}
G2 X-497.5 Y152.5 R497.5 Z{var.zpos+193.5}
G2 X497.5 Y152.5 R497.5 Z{var.zpos+193.5}
G2 X-497.5 Y152.5 R497.5 Z{var.zpos+194.0}
G2 X497.5 Y152.5 R497.5 Z{var.zpos+194.0}
G2 X-497.5 Y152.5 R497.5 Z{var.zpos+194.5}
G2 X497.5 Y152.5 R497.5 Z{var.zpos+194.5}
G2 X-497.5 Y152.5 R497.5 Z{var.zpos+195.0}
G2 X497.5 Y152.5 R497.5 Z{var.zpos+195.0}
G2 X-497.5 Y152.5 R497.5 Z{var.zpos+195.5}
G2 X497.5 Y152.5 R497.5 Z{var.zpos+195.5}
G2 X-497.5 Y152.5 R497.5 Z{var.zpos+196.0}
G2 X497.5 Y152.5 R497.5 Z{var.zpos+196.0}
G2 X-497.5 Y152.5 R497.5 Z{var.zpos+196.5}
G2 X497.5 Y152.5 R497.5 Z{var.zpos+196.5}
G2 X-497.5 Y152.5 R497.5 Z{var.zpos+197.0}
G2 X497.5 Y152.5 R497.5 Z{var.zpos+197.0}
G2 X-497.5 Y152.5 R497.5 Z{var.zpos+197.5}
G2 X497.5 Y152.5 R497.5 Z{var.zpos+197.5}
G2 X-497.5 Y152.5 R497.5 Z{var.zpos+198.0}
G2 X497.5 Y152.5 R497.5 Z{var.zpos+198.0}
G2 X-497.5 Y152.5 R497.5 Z{var.zpos+198.5}
G2 X497.5 Y152.5 R497.5 Z{var.zpos+198.5}
G2 X-497.5 Y152.5 R497.5 Z{var.zpos+199.0}
G2 X497.5 Y152.5 R497.5 Z{var.zpos+199.0}
G2 X-497.5 Y152.5 R497.5 Z{var.zpos+199.5}
G2 X497.5 Y152.5 R497.5 Z{var.zpos+199.5}
G2 X-497.5 Y152.5 R497.5 Z{var.zpos+200.0}
G2 X497.5 Y152.5 R497.5 Z{var.zpos+200.0}
G2 X-497.5 Y152.5 R497.5 Z{var.zpos+200.5}
G2 X497.5 Y152.5 R497.5 Z{var.zpos+200.5}
G2 X-497.5 Y152.5 R497.5 Z{var.zpos+201.0}
G2 X497.5 Y152.5 R497.5 Z{var.zpos+201.0}
G2 X-497.5 Y152.5 R497.5 Z{var.zpos+201.5}
G2 X497.5 Y152.5 R497.5 Z{var.zpos+201.5}
G2 X-497.5 Y152.5 R497.5 Z{var.zpos+202.0}
G2 X497.5 Y152.5 R497.5 Z{var.zpos+202.0}
G2 X-497.5 Y152.5 R497.5 Z{var.zpos+202.5}
G2 X497.5 Y152.5 R497.5 Z{var.zpos+202.5}
G2 X-497.5 Y152.5 R497.5 Z{var.zpos+203.0}
G2 X497.5 Y152.5 R497.5 Z{var.zpos+203.0}
G2 X-497.5 Y152.5 R497.5 Z{var.zpos+203.5}
G2 X497.5 Y152.5 R497.5 Z{var.zpos+203.5}
G2 X-497.5 Y152.5 R497.5 Z{var.zpos+204.0}
G2 X497.5 Y152.5 R497.5 Z{var.zpos+204.0}
G2 X-497.5 Y152.5 R497.5 Z{var.zpos+204.5}
G2 X497.5 Y152.5 R497.5 Z{var.zpos+204.5}
G2 X-497.5 Y152.5 R497.5 Z{var.zpos+205.0}
G2 X497.5 Y152.5 R497.5 Z{var.zpos+205.0}
G2 X-497.5 Y152.5 R497.5 Z{var.zpos+205.5}
G2 X497.5 Y152.5 R497.5 Z{var.zpos+205.5}
G2 X-497.5 Y152.5 R497.5 Z{var.zpos+206.0}
G2 X497.5 Y152.5 R497.5 Z{var.zpos+206.0}
G2 X-497.5 Y152.5 R497.5 Z{var.zpos+206.5}
G2 X497.5 Y152.5 R497.5 Z{var.zpos+206.5}
G2 X-497.5 Y152.5 R497.5 Z{var.zpos+207.0}
G2 X497.5 Y152.5 R497.5 Z{var.zpos+207.0}
G2 X-497.5 Y152.5 R497.5 Z{var.zpos+207.5}
G2 X497.5 Y152.5 R497.5 Z{var.zpos+207.5}
G2 X-497.5 Y152.5 R497.5 Z{var.zpos+208.0}
G2 X497.5 Y152.5 R497.5 Z{var.zpos+208.0}
G2 X-497.5 Y152.5 R497.5 Z{var.zpos+208.5}
G2 X497.5 Y152.5 R497.5 Z{var.zpos+208.5}
G2 X-497.5 Y152.5 R497.5 Z{var.zpos+209.0}
G2 X497.5 Y152.5 R497.5 Z{var.zpos+209.0}
G2 X-497.5 Y152.5 R497.5 Z{var.zpos+209.5}
G2 X497.5 Y152.5 R497.5 Z{var.zpos+209.5}
G2 X-497.5 Y152.5 R497.5 Z{var.zpos+210.0}
G2 X497.5 Y152.5 R497.5 Z{var.zpos+210.0}
G2 X-497.5 Y152.5 R497.5 Z{var.zpos+210.5}
G2 X497.5 Y152.5 R497.5 Z{var.zpos+210.5}
G2 X-497.5 Y152.5 R497.5 Z{var.zpos+211.0}
G2 X497.5 Y152.5 R497.5 Z{var.zpos+211.0}
G2 X-497.5 Y152.5 R497.5 Z{var.zpos+211.5}
G2 X497.5 Y152.5 R497.5 Z{var.zpos+211.5}
G2 X-497.5 Y152.5 R497.5 Z{var.zpos+212.0}
G2 X497.5 Y152.5 R497.5 Z{var.zpos+212.0}
G2 X-497.5 Y152.5 R497.5 Z{var.zpos+212.5}
G2 X497.5 Y152.5 R497.5 Z{var.zpos+212.5}
G2 X-497.5 Y152.5 R497.5 Z{var.zpos+213.0}
G2 X497.5 Y152.5 R497.5 Z{var.zpos+213.0}
G2 X-497.5 Y152.5 R497.5 Z{var.zpos+213.5}
G2 X497.5 Y152.5 R497.5 Z{var.zpos+213.5}
G2 X-497.5 Y152.5 R497.5 Z{var.zpos+214.0}
G2 X497.5 Y152.5 R497.5 Z{var.zpos+214.0}
G2 X-497.5 Y152.5 R497.5 Z{var.zpos+214.5}
G2 X497.5 Y152.5 R497.5 Z{var.zpos+214.5}
G2 X-497.5 Y152.5 R497.5 Z{var.zpos+215.0}
G2 X497.5 Y152.5 R497.5 Z{var.zpos+215.0}
G2 X-497.5 Y152.5 R497.5 Z{var.zpos+215.5}
G2 X497.5 Y152.5 R497.5 Z{var.zpos+215.5}
G2 X-497.5 Y152.5 R497.5 Z{var.zpos+216.0}
G2 X497.5 Y152.5 R497.5 Z{var.zpos+216.0}
G2 X-497.5 Y152.5 R497.5 Z{var.zpos+216.5}
G2 X497.5 Y152.5 R497.5 Z{var.zpos+216.5}
G2 X-497.5 Y152.5 R497.5 Z{var.zpos+217.0}
G2 X497.5 Y152.5 R497.5 Z{var.zpos+217.0}
G2 X-497.5 Y152.5 R497.5 Z{var.zpos+217.5}
G2 X497.5 Y152.5 R497.5 Z{var.zpos+217.5}
G2 X-497.5 Y152.5 R497.5 Z{var.zpos+218.0}
G2 X497.5 Y152.5 R497.5 Z{var.zpos+218.0}
G2 X-497.5 Y152.5 R497.5 Z{var.zpos+218.5}
G2 X497.5 Y152.5 R497.5 Z{var.zpos+218.5}
G2 X-497.5 Y152.5 R497.5 Z{var.zpos+219.0}
G2 X497.5 Y152.5 R497.5 Z{var.zpos+219.0}
G2 X-497.5 Y152.5 R497.5 Z{var.zpos+219.5}
G2 X497.5 Y152.5 R497.5 Z{var.zpos+219.5}
G2 X-497.5 Y152.5 R497.5 Z{var.zpos+220.0}
G2 X497.5 Y152.5 R497.5 Z{var.zpos+220.0}
G2 X-497.5 Y152.5 R497.5 Z{var.zpos+220.5}
G2 X497.5 Y152.5 R497.5 Z{var.zpos+220.5}
G2 X-497.5 Y152.5 R497.5 Z{var.zpos+221.0}
G2 X497.5 Y152.5 R497.5 Z{var.zpos+221.0}
G2 X-497.5 Y152.5 R497.5 Z{var.zpos+221.5}
G2 X497.5 Y152.5 R497.5 Z{var.zpos+221.5}
G2 X-497.5 Y152.5 R497.5 Z{var.zpos+222.0}
G2 X497.5 Y152.5 R497.5 Z{var.zpos+222.0}
G2 X-497.5 Y152.5 R497.5 Z{var.zpos+222.5}
G2 X497.5 Y152.5 R497.5 Z{var.zpos+222.5}
G2 X-497.5 Y152.5 R497.5 Z{var.zpos+223.0}
G2 X497.5 Y152.5 R497.5 Z{var.zpos+223.0}
G2 X-497.5 Y152.5 R497.5 Z{var.zpos+223.5}
G2 X497.5 Y152.5 R497.5 Z{var.zpos+223.5}
G2 X-497.5 Y152.5 R497.5 Z{var.zpos+224.0}
G2 X497.5 Y152.5 R497.5 Z{var.zpos+224.0}
G2 X-497.5 Y152.5 R497.5 Z{var.zpos+224.5}
G2 X497.5 Y152.5 R497.5 Z{var.zpos+224.5}
G2 X-497.5 Y152.5 R497.5 Z{var.zpos+225.0}
G2 X497.5 Y152.5 R497.5 Z{var.zpos+225.0}
G2 X-497.5 Y152.5 R497.5 Z{var.zpos+225.5}
G2 X497.5 Y152.5 R497.5 Z{var.zpos+225.5}
G2 X-497.5 Y152.5 R497.5 Z{var.zpos+226.0}
G2 X497.5 Y152.5 R497.5 Z{var.zpos+226.0}
G2 X-497.5 Y152.5 R497.5 Z{var.zpos+226.5}
G2 X497.5 Y152.5 R497.5 Z{var.zpos+226.5}
G2 X-497.5 Y152.5 R497.5 Z{var.zpos+227.0}
G2 X497.5 Y152.5 R497.5 Z{var.zpos+227.0}
G2 X-497.5 Y152.5 R497.5 Z{var.zpos+227.5}
G2 X497.5 Y152.5 R497.5 Z{var.zpos+227.5}
G2 X-497.5 Y152.5 R497.5 Z{var.zpos+228.0}
G2 X497.5 Y152.5 R497.5 Z{var.zpos+228.0}
G2 X-497.5 Y152.5 R497.5 Z{var.zpos+228.5}
G2 X497.5 Y152.5 R497.5 Z{var.zpos+228.5}
G2 X-497.5 Y152.5 R497.5 Z{var.zpos+229.0}
G2 X497.5 Y152.5 R497.5 Z{var.zpos+229.0}
G2 X-497.5 Y152.5 R497.5 Z{var.zpos+229.5}
G2 X497.5 Y152.5 R497.5 Z{var.zpos+229.5}
G2 X-497.5 Y152.5 R497.5 Z{var.zpos+230.0}
G2 X497.5 Y152.5 R497.5 Z{var.zpos+230.0}
G2 X-497.5 Y152.5 R497.5 Z{var.zpos+230.5}
G2 X497.5 Y152.5 R497.5 Z{var.zpos+230.5}
G2 X-497.5 Y152.5 R497.5 Z{var.zpos+231.0}
G2 X497.5 Y152.5 R497.5 Z{var.zpos+231.0}
G2 X-497.5 Y152.5 R497.5 Z{var.zpos+231.5}
G2 X497.5 Y152.5 R497.5 Z{var.zpos+231.5}
G2 X-497.5 Y152.5 R497.5 Z{var.zpos+232.0}
G2 X497.5 Y152.5 R497.5 Z{var.zpos+232.0}
G2 X-497.5 Y152.5 R497.5 Z{var.zpos+232.5}
G2 X497.5 Y152.5 R497.5 Z{var.zpos+232.5}
G2 X-497.5 Y152.5 R497.5 Z{var.zpos+233.0}
G2 X497.5 Y152.5 R497.5 Z{var.zpos+233.0}
G2 X-497.5 Y152.5 R497.5 Z{var.zpos+233.5}
G2 X497.5 Y152.5 R497.5 Z{var.zpos+233.5}
G2 X-497.5 Y152.5 R497.5 Z{var.zpos+234.0}
G2 X497.5 Y152.5 R497.5 Z{var.zpos+234.0}
G2 X-497.5 Y152.5 R497.5 Z{var.zpos+234.5}
G2 X497.5 Y152.5 R497.5 Z{var.zpos+234.5}
G2 X-497.5 Y152.5 R497.5 Z{var.zpos+235.0}
G2 X497.5 Y152.5 R497.5 Z{var.zpos+235.0}
G2 X-497.5 Y152.5 R497.5 Z{var.zpos+235.5}
G2 X497.5 Y152.5 R497.5 Z{var.zpos+235.5}
G2 X-497.5 Y152.5 R497.5 Z{var.zpos+236.0}
G2 X497.5 Y152.5 R497.5 Z{var.zpos+236.0}
G2 X-497.5 Y152.5 R497.5 Z{var.zpos+236.5}
G2 X497.5 Y152.5 R497.5 Z{var.zpos+236.5}
G2 X-497.5 Y152.5 R497.5 Z{var.zpos+237.0}
G2 X497.5 Y152.5 R497.5 Z{var.zpos+237.0}
G2 X-497.5 Y152.5 R497.5 Z{var.zpos+237.5}
G2 X497.5 Y152.5 R497.5 Z{var.zpos+237.5}
G2 X-497.5 Y152.5 R497.5 Z{var.zpos+238.0}
G2 X497.5 Y152.5 R497.5 Z{var.zpos+238.0}
G2 X-497.5 Y152.5 R497.5 Z{var.zpos+238.5}
G2 X497.5 Y152.5 R497.5 Z{var.zpos+238.5}
G2 X-497.5 Y152.5 R497.5 Z{var.zpos+239.0}
G2 X497.5 Y152.5 R497.5 Z{var.zpos+239.0}
G2 X-497.5 Y152.5 R497.5 Z{var.zpos+239.5}
G2 X497.5 Y152.5 R497.5 Z{var.zpos+239.5}
G2 X-497.5 Y152.5 R497.5 Z{var.zpos+240.0}
G2 X497.5 Y152.5 R497.5 Z{var.zpos+240.0}
G2 X-497.5 Y152.5 R497.5 Z{var.zpos+240.5}
G2 X497.5 Y152.5 R497.5 Z{var.zpos+240.5}
G2 X-497.5 Y152.5 R497.5 Z{var.zpos+241.0}
G2 X497.5 Y152.5 R497.5 Z{var.zpos+241.0}
G2 X-497.5 Y152.5 R497.5 Z{var.zpos+241.5}
G2 X497.5 Y152.5 R497.5 Z{var.zpos+241.5}
G2 X-497.5 Y152.5 R497.5 Z{var.zpos+242.0}
G2 X497.5 Y152.5 R497.5 Z{var.zpos+242.0}
G2 X-497.5 Y152.5 R497.5 Z{var.zpos+242.5}
G2 X497.5 Y152.5 R497.5 Z{var.zpos+242.5}
G2 X-497.5 Y152.5 R497.5 Z{var.zpos+243.0}
G2 X497.5 Y152.5 R497.5 Z{var.zpos+243.0}
G2 X-497.5 Y152.5 R497.5 Z{var.zpos+243.5}
G2 X497.5 Y152.5 R497.5 Z{var.zpos+243.5}
G2 X-497.5 Y152.5 R497.5 Z{var.zpos+244.0}
G2 X497.5 Y152.5 R497.5 Z{var.zpos+244.0}
G2 X-497.5 Y152.5 R497.5 Z{var.zpos+244.5}
G2 X497.5 Y152.5 R497.5 Z{var.zpos+244.5}
G2 X-497.5 Y152.5 R497.5 Z{var.zpos+245.0}
G2 X497.5 Y152.5 R497.5 Z{var.zpos+245.0}
G2 X-497.5 Y152.5 R497.5 Z{var.zpos+245.5}
G2 X497.5 Y152.5 R497.5 Z{var.zpos+245.5}
G2 X-497.5 Y152.5 R497.5 Z{var.zpos+246.0}
G2 X497.5 Y152.5 R497.5 Z{var.zpos+246.0}
G2 X-497.5 Y152.5 R497.5 Z{var.zpos+246.5}
G2 X497.5 Y152.5 R497.5 Z{var.zpos+246.5}
G2 X-497.5 Y152.5 R497.5 Z{var.zpos+247.0}
G2 X497.5 Y152.5 R497.5 Z{var.zpos+247.0}
G2 X-497.5 Y152.5 R497.5 Z{var.zpos+247.5}
G2 X497.5 Y152.5 R497.5 Z{var.zpos+247.5}
G2 X-497.5 Y152.5 R497.5 Z{var.zpos+248.0}
G2 X497.5 Y152.5 R497.5 Z{var.zpos+248.0}
G2 X-497.5 Y152.5 R497.5 Z{var.zpos+248.5}
G2 X497.5 Y152.5 R497.5 Z{var.zpos+248.5}
G2 X-497.5 Y152.5 R497.5 Z{var.zpos+249.0}
G2 X497.5 Y152.5 R497.5 Z{var.zpos+249.0}
G2 X-497.5 Y152.5 R497.5 Z{var.zpos+249.5}
G2 X497.5 Y152.5 R497.5 Z{var.zpos+249.5}
G2 X-497.5 Y152.5 R497.5 Z{var.zpos+250.0}
G2 X497.5 Y152.5 R497.5 Z{var.zpos+250.0}
G2 X-497.5 Y152.5 R497.5 Z{var.zpos+250.5}
G2 X497.5 Y152.5 R497.5 Z{var.zpos+250.5}
G2 X-497.5 Y152.5 R497.5 Z{var.zpos+251.0}
G2 X497.5 Y152.5 R497.5 Z{var.zpos+251.0}
G2 X-497.5 Y152.5 R497.5 Z{var.zpos+251.5}
G2 X497.5 Y152.5 R497.5 Z{var.zpos+251.5}
G2 X-497.5 Y152.5 R497.5 Z{var.zpos+252.0}
G2 X497.5 Y152.5 R497.5 Z{var.zpos+252.0}
G2 X-497.5 Y152.5 R497.5 Z{var.zpos+252.5}
G2 X497.5 Y152.5 R497.5 Z{var.zpos+252.5}
G2 X-497.5 Y152.5 R497.5 Z{var.zpos+253.0}
G2 X497.5 Y152.5 R497.5 Z{var.zpos+253.0}
G2 X-497.5 Y152.5 R497.5 Z{var.zpos+253.5}
G2 X497.5 Y152.5 R497.5 Z{var.zpos+253.5}
G2 X-497.5 Y152.5 R497.5 Z{var.zpos+254.0}
G2 X497.5 Y152.5 R497.5 Z{var.zpos+254.0}
G2 X-497.5 Y152.5 R497.5 Z{var.zpos+254.5}
G2 X497.5 Y152.5 R497.5 Z{var.zpos+254.5}
G2 X-497.5 Y152.5 R497.5 Z{var.zpos+255.0}
G2 X497.5 Y152.5 R497.5 Z{var.zpos+255.0}
G2 X-497.5 Y152.5 R497.5 Z{var.zpos+255.5}
G2 X497.5 Y152.5 R497.5 Z{var.zpos+255.5}
G2 X-497.5 Y152.5 R497.5 Z{var.zpos+256.0}
G2 X497.5 Y152.5 R497.5 Z{var.zpos+256.0}
G2 X-497.5 Y152.5 R497.5 Z{var.zpos+256.5}
G2 X497.5 Y152.5 R497.5 Z{var.zpos+256.5}
G2 X-497.5 Y152.5 R497.5 Z{var.zpos+257.0}
G2 X497.5 Y152.5 R497.5 Z{var.zpos+257.0}
G2 X-497.5 Y152.5 R497.5 Z{var.zpos+257.5}
G2 X497.5 Y152.5 R497.5 Z{var.zpos+257.5}
G2 X-497.5 Y152.5 R497.5 Z{var.zpos+258.0}
G2 X497.5 Y152.5 R497.5 Z{var.zpos+258.0}
G2 X-497.5 Y152.5 R497.5 Z{var.zpos+258.5}
G2 X497.5 Y152.5 R497.5 Z{var.zpos+258.5}
G2 X-497.5 Y152.5 R497.5 Z{var.zpos+259.0}
G2 X497.5 Y152.5 R497.5 Z{var.zpos+259.0}
G2 X-497.5 Y152.5 R497.5 Z{var.zpos+259.5}
G2 X497.5 Y152.5 R497.5 Z{var.zpos+259.5}
G2 X-497.5 Y152.5 R497.5 Z{var.zpos+260.0}
G2 X497.5 Y152.5 R497.5 Z{var.zpos+260.0}
G2 X-497.5 Y152.5 R497.5 Z{var.zpos+260.5}
G2 X497.5 Y152.5 R497.5 Z{var.zpos+260.5}
G2 X-497.5 Y152.5 R497.5 Z{var.zpos+261.0}
G2 X497.5 Y152.5 R497.5 Z{var.zpos+261.0}
G2 X-497.5 Y152.5 R497.5 Z{var.zpos+261.5}
G2 X497.5 Y152.5 R497.5 Z{var.zpos+261.5}
G2 X-497.5 Y152.5 R497.5 Z{var.zpos+262.0}
G2 X497.5 Y152.5 R497.5 Z{var.zpos+262.0}
G2 X-497.5 Y152.5 R497.5 Z{var.zpos+262.5}
G2 X497.5 Y152.5 R497.5 Z{var.zpos+262.5}
G2 X-497.5 Y152.5 R497.5 Z{var.zpos+263.0}
G2 X497.5 Y152.5 R497.5 Z{var.zpos+263.0}
G2 X-497.5 Y152.5 R497.5 Z{var.zpos+263.5}
G2 X497.5 Y152.5 R497.5 Z{var.zpos+263.5}
G2 X-497.5 Y152.5 R497.5 Z{var.zpos+264.0}
G2 X497.5 Y152.5 R497.5 Z{var.zpos+264.0}
G2 X-497.5 Y152.5 R497.5 Z{var.zpos+264.5}
G2 X497.5 Y152.5 R497.5 Z{var.zpos+264.5}
G2 X-497.5 Y152.5 R497.5 Z{var.zpos+265.0}
G2 X497.5 Y152.5 R497.5 Z{var.zpos+265.0}
G2 X-497.5 Y152.5 R497.5 Z{var.zpos+265.5}
G2 X497.5 Y152.5 R497.5 Z{var.zpos+265.5}
G2 X-497.5 Y152.5 R497.5 Z{var.zpos+266.0}
G2 X497.5 Y152.5 R497.5 Z{var.zpos+266.0}
G2 X-497.5 Y152.5 R497.5 Z{var.zpos+266.5}
G2 X497.5 Y152.5 R497.5 Z{var.zpos+266.5}
G2 X-497.5 Y152.5 R497.5 Z{var.zpos+267.0}
G2 X497.5 Y152.5 R497.5 Z{var.zpos+267.0}
G2 X-497.5 Y152.5 R497.5 Z{var.zpos+267.5}
G2 X497.5 Y152.5 R497.5 Z{var.zpos+267.5}
G2 X-497.5 Y152.5 R497.5 Z{var.zpos+268.0}
G2 X497.5 Y152.5 R497.5 Z{var.zpos+268.0}
G2 X-497.5 Y152.5 R497.5 Z{var.zpos+268.5}
G2 X497.5 Y152.5 R497.5 Z{var.zpos+268.5}
G2 X-497.5 Y152.5 R497.5 Z{var.zpos+269.0}
G2 X497.5 Y152.5 R497.5 Z{var.zpos+269.0}
G2 X-497.5 Y152.5 R497.5 Z{var.zpos+269.5}
G2 X497.5 Y152.5 R497.5 Z{var.zpos+269.5}
G2 X-497.5 Y152.5 R497.5 Z{var.zpos+270.0}
G2 X497.5 Y152.5 R497.5 Z{var.zpos+270.0}
G2 X-497.5 Y152.5 R497.5 Z{var.zpos+270.5}
G2 X497.5 Y152.5 R497.5 Z{var.zpos+270.5}
G2 X-497.5 Y152.5 R497.5 Z{var.zpos+271.0}
G2 X497.5 Y152.5 R497.5 Z{var.zpos+271.0}
G2 X-497.5 Y152.5 R497.5 Z{var.zpos+271.5}
G2 X497.5 Y152.5 R497.5 Z{var.zpos+271.5}
G2 X-497.5 Y152.5 R497.5 Z{var.zpos+272.0}
G2 X497.5 Y152.5 R497.5 Z{var.zpos+272.0}
G2 X-497.5 Y152.5 R497.5 Z{var.zpos+272.5}
G2 X497.5 Y152.5 R497.5 Z{var.zpos+272.5}
G2 X-497.5 Y152.5 R497.5 Z{var.zpos+273.0}
G2 X497.5 Y152.5 R497.5 Z{var.zpos+273.0}
G2 X-497.5 Y152.5 R497.5 Z{var.zpos+273.5}
G2 X497.5 Y152.5 R497.5 Z{var.zpos+273.5}
G2 X-497.5 Y152.5 R497.5 Z{var.zpos+274.0}
G2 X497.5 Y152.5 R497.5 Z{var.zpos+274.0}
G2 X-497.5 Y152.5 R497.5 Z{var.zpos+274.5}
G2 X497.5 Y152.5 R497.5 Z{var.zpos+274.5}
G2 X-497.5 Y152.5 R497.5 Z{var.zpos+275.0}
G2 X497.5 Y152.5 R497.5 Z{var.zpos+275.0}
G2 X-497.5 Y152.5 R497.5 Z{var.zpos+275.5}
G2 X497.5 Y152.5 R497.5 Z{var.zpos+275.5}
G2 X-497.5 Y152.5 R497.5 Z{var.zpos+276.0}
G2 X497.5 Y152.5 R497.5 Z{var.zpos+276.0}
G2 X-497.5 Y152.5 R497.5 Z{var.zpos+276.5}
G2 X497.5 Y152.5 R497.5 Z{var.zpos+276.5}
G2 X-497.5 Y152.5 R497.5 Z{var.zpos+277.0}
G2 X497.5 Y152.5 R497.5 Z{var.zpos+277.0}
G2 X-497.5 Y152.5 R497.5 Z{var.zpos+277.5}
G2 X497.5 Y152.5 R497.5 Z{var.zpos+277.5}
G2 X-497.5 Y152.5 R497.5 Z{var.zpos+278.0}
G2 X497.5 Y152.5 R497.5 Z{var.zpos+278.0}
G2 X-497.5 Y152.5 R497.5 Z{var.zpos+278.5}
G2 X497.5 Y152.5 R497.5 Z{var.zpos+278.5}
G2 X-497.5 Y152.5 R497.5 Z{var.zpos+279.0}
G2 X497.5 Y152.5 R497.5 Z{var.zpos+279.0}
G2 X-497.5 Y152.5 R497.5 Z{var.zpos+279.5}
G2 X497.5 Y152.5 R497.5 Z{var.zpos+279.5}
G2 X-497.5 Y152.5 R497.5 Z{var.zpos+280.0}
G2 X497.5 Y152.5 R497.5 Z{var.zpos+280.0}
G2 X-497.5 Y152.5 R497.5 Z{var.zpos+280.5}
G2 X497.5 Y152.5 R497.5 Z{var.zpos+280.5}
G2 X-497.5 Y152.5 R497.5 Z{var.zpos+281.0}
G2 X497.5 Y152.5 R497.5 Z{var.zpos+281.0}
G2 X-497.5 Y152.5 R497.5 Z{var.zpos+281.5}
G2 X497.5 Y152.5 R497.5 Z{var.zpos+281.5}
G2 X-497.5 Y152.5 R497.5 Z{var.zpos+282.0}
G2 X497.5 Y152.5 R497.5 Z{var.zpos+282.0}
G2 X-497.5 Y152.5 R497.5 Z{var.zpos+282.5}
G2 X497.5 Y152.5 R497.5 Z{var.zpos+282.5}
G2 X-497.5 Y152.5 R497.5 Z{var.zpos+283.0}
G2 X497.5 Y152.5 R497.5 Z{var.zpos+283.0}
G2 X-497.5 Y152.5 R497.5 Z{var.zpos+283.5}
G2 X497.5 Y152.5 R497.5 Z{var.zpos+283.5}
G2 X-497.5 Y152.5 R497.5 Z{var.zpos+284.0}
G2 X497.5 Y152.5 R497.5 Z{var.zpos+284.0}
G2 X-497.5 Y152.5 R497.5 Z{var.zpos+284.5}
G2 X497.5 Y152.5 R497.5 Z{var.zpos+284.5}
G2 X-497.5 Y152.5 R497.5 Z{var.zpos+285.0}
G2 X497.5 Y152.5 R497.5 Z{var.zpos+285.0}
G2 X-497.5 Y152.5 R497.5 Z{var.zpos+285.5}
G2 X497.5 Y152.5 R497.5 Z{var.zpos+285.5}
G2 X-497.5 Y152.5 R497.5 Z{var.zpos+286.0}
G2 X497.5 Y152.5 R497.5 Z{var.zpos+286.0}
G2 X-497.5 Y152.5 R497.5 Z{var.zpos+286.5}
G2 X497.5 Y152.5 R497.5 Z{var.zpos+286.5}
G2 X-497.5 Y152.5 R497.5 Z{var.zpos+287.0}
G2 X497.5 Y152.5 R497.5 Z{var.zpos+287.0}
G2 X-497.5 Y152.5 R497.5 Z{var.zpos+287.5}
G2 X497.5 Y152.5 R497.5 Z{var.zpos+287.5}
G2 X-497.5 Y152.5 R497.5 Z{var.zpos+288.0}
G2 X497.5 Y152.5 R497.5 Z{var.zpos+288.0}
G2 X-497.5 Y152.5 R497.5 Z{var.zpos+288.5}
G2 X497.5 Y152.5 R497.5 Z{var.zpos+288.5}
G2 X-497.5 Y152.5 R497.5 Z{var.zpos+289.0}
G2 X497.5 Y152.5 R497.5 Z{var.zpos+289.0}
G2 X-497.5 Y152.5 R497.5 Z{var.zpos+289.5}
G2 X497.5 Y152.5 R497.5 Z{var.zpos+289.5}
G2 X-497.5 Y152.5 R497.5 Z{var.zpos+290.0}
G2 X497.5 Y152.5 R497.5 Z{var.zpos+290.0}
G2 X-497.5 Y152.5 R497.5 Z{var.zpos+290.5}
G2 X497.5 Y152.5 R497.5 Z{var.zpos+290.5}
G2 X-497.5 Y152.5 R497.5 Z{var.zpos+291.0}
G2 X497.5 Y152.5 R497.5 Z{var.zpos+291.0}
G2 X-497.5 Y152.5 R497.5 Z{var.zpos+291.5}
G2 X497.5 Y152.5 R497.5 Z{var.zpos+291.5}
G2 X-497.5 Y152.5 R497.5 Z{var.zpos+292.0}
G2 X497.5 Y152.5 R497.5 Z{var.zpos+292.0}
G2 X-497.5 Y152.5 R497.5 Z{var.zpos+292.5}
G2 X497.5 Y152.5 R497.5 Z{var.zpos+292.5}
G2 X-497.5 Y152.5 R497.5 Z{var.zpos+293.0}
G2 X497.5 Y152.5 R497.5 Z{var.zpos+293.0}
G2 X-497.5 Y152.5 R497.5 Z{var.zpos+293.5}
G2 X497.5 Y152.5 R497.5 Z{var.zpos+293.5}
G2 X-497.5 Y152.5 R497.5 Z{var.zpos+294.0}
G2 X497.5 Y152.5 R497.5 Z{var.zpos+294.0}
G2 X-497.5 Y152.5 R497.5 Z{var.zpos+294.5}
G2 X497.5 Y152.5 R497.5 Z{var.zpos+294.5}
G2 X-497.5 Y152.5 R497.5 Z{var.zpos+295.0}
G2 X497.5 Y152.5 R497.5 Z{var.zpos+295.0}
G2 X-497.5 Y152.5 R497.5 Z{var.zpos+295.5}
G2 X497.5 Y152.5 R497.5 Z{var.zpos+295.5}
G2 X-497.5 Y152.5 R497.5 Z{var.zpos+296.0}
G2 X497.5 Y152.5 R497.5 Z{var.zpos+296.0}
G2 X-497.5 Y152.5 R497.5 Z{var.zpos+296.5}
G2 X497.5 Y152.5 R497.5 Z{var.zpos+296.5}
G2 X-497.5 Y152.5 R497.5 Z{var.zpos+297.0}
G2 X497.5 Y152.5 R497.5 Z{var.zpos+297.0}
G2 X-497.5 Y152.5 R497.5 Z{var.zpos+297.5}
G2 X497.5 Y152.5 R497.5 Z{var.zpos+297.5}
G2 X-497.5 Y152.5 R497.5 Z{var.zpos+298.0}
G2 X497.5 Y152.5 R497.5 Z{var.zpos+298.0}
G2 X-497.5 Y152.5 R497.5 Z{var.zpos+298.5}
G2 X497.5 Y152.5 R497.5 Z{var.zpos+298.5}
G2 X-497.5 Y152.5 R497.5 Z{var.zpos+299.0}
G2 X497.5 Y152.5 R497.5 Z{var.zpos+299.0}
G2 X-497.5 Y152.5 R497.5 Z{var.zpos+299.5}
G2 X497.5 Y152.5 R497.5 Z{var.zpos+299.5}
G2 X-497.5 Y152.5 R497.5 Z{var.zpos+300.0}
G2 X497.5 Y152.5 R497.5 Z{var.zpos+300.0}
G2 X-497.5 Y152.5 R497.5 Z{var.zpos+300.5}
G2 X497.5 Y152.5 R497.5 Z{var.zpos+300.5}
G2 X-497.5 Y152.5 R497.5 Z{var.zpos+301.0}
G2 X497.5 Y152.5 R497.5 Z{var.zpos+301.0}
G2 X-497.5 Y152.5 R497.5 Z{var.zpos+301.5}
G2 X497.5 Y152.5 R497.5 Z{var.zpos+301.5}
G2 X-497.5 Y152.5 R497.5 Z{var.zpos+302.0}
G2 X497.5 Y152.5 R497.5 Z{var.zpos+302.0}
G2 X-497.5 Y152.5 R497.5 Z{var.zpos+302.5}
G2 X497.5 Y152.5 R497.5 Z{var.zpos+302.5}
G2 X-497.5 Y152.5 R497.5 Z{var.zpos+303.0}
G2 X497.5 Y152.5 R497.5 Z{var.zpos+303.0}
G2 X-497.5 Y152.5 R497.5 Z{var.zpos+303.5}
G2 X497.5 Y152.5 R497.5 Z{var.zpos+303.5}
G2 X-497.5 Y152.5 R497.5 Z{var.zpos+304.0}
G2 X497.5 Y152.5 R497.5 Z{var.zpos+304.0}
G2 X-497.5 Y152.5 R497.5 Z{var.zpos+304.5}
G2 X497.5 Y152.5 R497.5 Z{var.zpos+304.5}
G2 X-497.5 Y152.5 R497.5 Z{var.zpos+305.0}
G2 X497.5 Y152.5 R497.5 Z{var.zpos+305.0}
G2 X-497.5 Y152.5 R497.5 Z{var.zpos+305.5}
G2 X497.5 Y152.5 R497.5 Z{var.zpos+305.5}
G2 X-497.5 Y152.5 R497.5 Z{var.zpos+306.0}
G2 X497.5 Y152.5 R497.5 Z{var.zpos+306.0}
G2 X-497.5 Y152.5 R497.5 Z{var.zpos+306.5}
G2 X497.5 Y152.5 R497.5 Z{var.zpos+306.5}
G2 X-497.5 Y152.5 R497.5 Z{var.zpos+307.0}
G2 X497.5 Y152.5 R497.5 Z{var.zpos+307.0}
G2 X-497.5 Y152.5 R497.5 Z{var.zpos+307.5}
G2 X497.5 Y152.5 R497.5 Z{var.zpos+307.5}
G2 X-497.5 Y152.5 R497.5 Z{var.zpos+308.0}
G2 X497.5 Y152.5 R497.5 Z{var.zpos+308.0}
G2 X-497.5 Y152.5 R497.5 Z{var.zpos+308.5}
G2 X497.5 Y152.5 R497.5 Z{var.zpos+308.5}
G2 X-497.5 Y152.5 R497.5 Z{var.zpos+309.0}
G2 X497.5 Y152.5 R497.5 Z{var.zpos+309.0}
G2 X-497.5 Y152.5 R497.5 Z{var.zpos+309.5}
G2 X497.5 Y152.5 R497.5 Z{var.zpos+309.5}
G2 X-497.5 Y152.5 R497.5 Z{var.zpos+310.0}
G2 X497.5 Y152.5 R497.5 Z{var.zpos+310.0}
G2 X-497.5 Y152.5 R497.5 Z{var.zpos+310.5}
G2 X497.5 Y152.5 R497.5 Z{var.zpos+310.5}
G2 X-497.5 Y152.5 R497.5 Z{var.zpos+311.0}
G2 X497.5 Y152.5 R497.5 Z{var.zpos+311.0}
G2 X-497.5 Y152.5 R497.5 Z{var.zpos+311.5}
G2 X497.5 Y152.5 R497.5 Z{var.zpos+311.5}
G2 X-497.5 Y152.5 R497.5 Z{var.zpos+312.0}
G2 X497.5 Y152.5 R497.5 Z{var.zpos+312.0}
G2 X-497.5 Y152.5 R497.5 Z{var.zpos+312.5}
G2 X497.5 Y152.5 R497.5 Z{var.zpos+312.5}
G2 X-497.5 Y152.5 R497.5 Z{var.zpos+313.0}
G2 X497.5 Y152.5 R497.5 Z{var.zpos+313.0}
G2 X-497.5 Y152.5 R497.5 Z{var.zpos+313.5}
G2 X497.5 Y152.5 R497.5 Z{var.zpos+313.5}
G2 X-497.5 Y152.5 R497.5 Z{var.zpos+314.0}
G2 X497.5 Y152.5 R497.5 Z{var.zpos+314.0}
G2 X-497.5 Y152.5 R497.5 Z{var.zpos+314.5}
G2 X497.5 Y152.5 R497.5 Z{var.zpos+314.5}
G2 X-497.5 Y152.5 R497.5 Z{var.zpos+315.0}
G2 X497.5 Y152.5 R497.5 Z{var.zpos+315.0}
G2 X-497.5 Y152.5 R497.5 Z{var.zpos+315.5}
G2 X497.5 Y152.5 R497.5 Z{var.zpos+315.5}
G2 X-497.5 Y152.5 R497.5 Z{var.zpos+316.0}
G2 X497.5 Y152.5 R497.5 Z{var.zpos+316.0}
G2 X-497.5 Y152.5 R497.5 Z{var.zpos+316.5}
G2 X497.5 Y152.5 R497.5 Z{var.zpos+316.5}
G2 X-497.5 Y152.5 R497.5 Z{var.zpos+317.0}
G2 X497.5 Y152.5 R497.5 Z{var.zpos+317.0}
G2 X-497.5 Y152.5 R497.5 Z{var.zpos+317.5}
G2 X497.5 Y152.5 R497.5 Z{var.zpos+317.5}
G2 X-497.5 Y152.5 R497.5 Z{var.zpos+318.0}
G2 X497.5 Y152.5 R497.5 Z{var.zpos+318.0}
G2 X-497.5 Y152.5 R497.5 Z{var.zpos+318.5}
G2 X497.5 Y152.5 R497.5 Z{var.zpos+318.5}
G2 X-497.5 Y152.5 R497.5 Z{var.zpos+319.0}
G2 X497.5 Y152.5 R497.5 Z{var.zpos+319.0}
G2 X-497.5 Y152.5 R497.5 Z{var.zpos+319.5}
G2 X497.5 Y152.5 R497.5 Z{var.zpos+319.5}
G2 X-497.5 Y152.5 R497.5 Z{var.zpos+320.0}
G2 X497.5 Y152.5 R497.5 Z{var.zpos+320.0}
G2 X-497.5 Y152.5 R497.5 Z{var.zpos+320.5}
G2 X497.5 Y152.5 R497.5 Z{var.zpos+320.5}
G2 X-497.5 Y152.5 R497.5 Z{var.zpos+321.0}
G2 X497.5 Y152.5 R497.5 Z{var.zpos+321.0}
G2 X-497.5 Y152.5 R497.5 Z{var.zpos+321.5}
G2 X497.5 Y152.5 R497.5 Z{var.zpos+321.5}
G2 X-497.5 Y152.5 R497.5 Z{var.zpos+322.0}
G2 X497.5 Y152.5 R497.5 Z{var.zpos+322.0}
G2 X-497.5 Y152.5 R497.5 Z{var.zpos+322.5}
G2 X497.5 Y152.5 R497.5 Z{var.zpos+322.5}
G2 X-497.5 Y152.5 R497.5 Z{var.zpos+323.0}
G2 X497.5 Y152.5 R497.5 Z{var.zpos+323.0}
G2 X-497.5 Y152.5 R497.5 Z{var.zpos+323.5}
G2 X497.5 Y152.5 R497.5 Z{var.zpos+323.5}
G2 X-497.5 Y152.5 R497.5 Z{var.zpos+324.0}
G2 X497.5 Y152.5 R497.5 Z{var.zpos+324.0}
G2 X-497.5 Y152.5 R497.5 Z{var.zpos+324.5}
G2 X497.5 Y152.5 R497.5 Z{var.zpos+324.5}
G2 X-497.5 Y152.5 R497.5 Z{var.zpos+325.0}
G2 X497.5 Y152.5 R497.5 Z{var.zpos+325.0}
G2 X-497.5 Y152.5 R497.5 Z{var.zpos+325.5}
G2 X497.5 Y152.5 R497.5 Z{var.zpos+325.5}
G2 X-497.5 Y152.5 R497.5 Z{var.zpos+326.0}
G2 X497.5 Y152.5 R497.5 Z{var.zpos+326.0}
G2 X-497.5 Y152.5 R497.5 Z{var.zpos+326.5}
G2 X497.5 Y152.5 R497.5 Z{var.zpos+326.5}
G2 X-497.5 Y152.5 R497.5 Z{var.zpos+327.0}
G2 X497.5 Y152.5 R497.5 Z{var.zpos+327.0}
G2 X-497.5 Y152.5 R497.5 Z{var.zpos+327.5}
G2 X497.5 Y152.5 R497.5 Z{var.zpos+327.5}
G2 X-497.5 Y152.5 R497.5 Z{var.zpos+328.0}
G2 X497.5 Y152.5 R497.5 Z{var.zpos+328.0}
G2 X-497.5 Y152.5 R497.5 Z{var.zpos+328.5}
G2 X497.5 Y152.5 R497.5 Z{var.zpos+328.5}
G2 X-497.5 Y152.5 R497.5 Z{var.zpos+329.0}
G2 X497.5 Y152.5 R497.5 Z{var.zpos+329.0}
G2 X-497.5 Y152.5 R497.5 Z{var.zpos+329.5}
G2 X497.5 Y152.5 R497.5 Z{var.zpos+329.5}
G2 X-497.5 Y152.5 R497.5 Z{var.zpos+330.0}
G2 X497.5 Y152.5 R497.5 Z{var.zpos+330.0}
G2 X-497.5 Y152.5 R497.5 Z{var.zpos+330.5}
G2 X497.5 Y152.5 R497.5 Z{var.zpos+330.5}
G2 X-497.5 Y152.5 R497.5 Z{var.zpos+331.0}
G2 X497.5 Y152.5 R497.5 Z{var.zpos+331.0}
G2 X-497.5 Y152.5 R497.5 Z{var.zpos+331.5}
G2 X497.5 Y152.5 R497.5 Z{var.zpos+331.5}
G2 X-497.5 Y152.5 R497.5 Z{var.zpos+332.0}
G2 X497.5 Y152.5 R497.5 Z{var.zpos+332.0}
G2 X-497.5 Y152.5 R497.5 Z{var.zpos+332.5}
G2 X497.5 Y152.5 R497.5 Z{var.zpos+332.5}
G2 X-497.5 Y152.5 R497.5 Z{var.zpos+333.0}
G2 X497.5 Y152.5 R497.5 Z{var.zpos+333.0}
G2 X-497.5 Y152.5 R497.5 Z{var.zpos+333.5}
G2 X497.5 Y152.5 R497.5 Z{var.zpos+333.5}
G2 X-497.5 Y152.5 R497.5 Z{var.zpos+334.0}
G2 X497.5 Y152.5 R497.5 Z{var.zpos+334.0}
G2 X-497.5 Y152.5 R497.5 Z{var.zpos+334.5}
G2 X497.5 Y152.5 R497.5 Z{var.zpos+334.5}
G2 X-497.5 Y152.5 R497.5 Z{var.zpos+335.0}
G2 X497.5 Y152.5 R497.5 Z{var.zpos+335.0}
G2 X-497.5 Y152.5 R497.5 Z{var.zpos+335.5}
G2 X497.5 Y152.5 R497.5 Z{var.zpos+335.5}
G2 X-497.5 Y152.5 R497.5 Z{var.zpos+336.0}
G2 X497.5 Y152.5 R497.5 Z{var.zpos+336.0}
G2 X-497.5 Y152.5 R497.5 Z{var.zpos+336.5}
G2 X497.5 Y152.5 R497.5 Z{var.zpos+336.5}
G2 X-497.5 Y152.5 R497.5 Z{var.zpos+337.0}
G2 X497.5 Y152.5 R497.5 Z{var.zpos+337.0}
G2 X-497.5 Y152.5 R497.5 Z{var.zpos+337.5}
G2 X497.5 Y152.5 R497.5 Z{var.zpos+337.5}
G2 X-497.5 Y152.5 R497.5 Z{var.zpos+338.0}
G2 X497.5 Y152.5 R497.5 Z{var.zpos+338.0}
G2 X-497.5 Y152.5 R497.5 Z{var.zpos+338.5}
G2 X497.5 Y152.5 R497.5 Z{var.zpos+338.5}
G2 X-497.5 Y152.5 R497.5 Z{var.zpos+339.0}
G2 X497.5 Y152.5 R497.5 Z{var.zpos+339.0}
G2 X-497.5 Y152.5 R497.5 Z{var.zpos+339.5}
G2 X497.5 Y152.5 R497.5 Z{var.zpos+339.5}
G2 X-497.5 Y152.5 R497.5 Z{var.zpos+340.0}
G2 X497.5 Y152.5 R497.5 Z{var.zpos+340.0}
G2 X-497.5 Y152.5 R497.5 Z{var.zpos+340.5}
G2 X497.5 Y152.5 R497.5 Z{var.zpos+340.5}
G2 X-497.5 Y152.5 R497.5 Z{var.zpos+341.0}
G2 X497.5 Y152.5 R497.5 Z{var.zpos+341.0}
G2 X-497.5 Y152.5 R497.5 Z{var.zpos+341.5}
G2 X497.5 Y152.5 R497.5 Z{var.zpos+341.5}
G2 X-497.5 Y152.5 R497.5 Z{var.zpos+342.0}
G2 X497.5 Y152.5 R497.5 Z{var.zpos+342.0}
G2 X-497.5 Y152.5 R497.5 Z{var.zpos+342.5}
G2 X497.5 Y152.5 R497.5 Z{var.zpos+342.5}
G2 X-497.5 Y152.5 R497.5 Z{var.zpos+343.0}
G2 X497.5 Y152.5 R497.5 Z{var.zpos+343.0}
G2 X-497.5 Y152.5 R497.5 Z{var.zpos+343.5}
G2 X497.5 Y152.5 R497.5 Z{var.zpos+343.5}
G2 X-497.5 Y152.5 R497.5 Z{var.zpos+344.0}
G2 X497.5 Y152.5 R497.5 Z{var.zpos+344.0}
G2 X-497.5 Y152.5 R497.5 Z{var.zpos+344.5}
G2 X497.5 Y152.5 R497.5 Z{var.zpos+344.5}
G2 X-497.5 Y152.5 R497.5 Z{var.zpos+345.0}
G2 X497.5 Y152.5 R497.5 Z{var.zpos+345.0}
G2 X-497.5 Y152.5 R497.5 Z{var.zpos+345.5}
G2 X497.5 Y152.5 R497.5 Z{var.zpos+345.5}
G2 X-497.5 Y152.5 R497.5 Z{var.zpos+346.0}
G2 X497.5 Y152.5 R497.5 Z{var.zpos+346.0}
G2 X-497.5 Y152.5 R497.5 Z{var.zpos+346.5}
G2 X497.5 Y152.5 R497.5 Z{var.zpos+346.5}
G2 X-497.5 Y152.5 R497.5 Z{var.zpos+347.0}
G2 X497.5 Y152.5 R497.5 Z{var.zpos+347.0}
G2 X-497.5 Y152.5 R497.5 Z{var.zpos+347.5}
G2 X497.5 Y152.5 R497.5 Z{var.zpos+347.5}
G2 X-497.5 Y152.5 R497.5 Z{var.zpos+348.0}
G2 X497.5 Y152.5 R497.5 Z{var.zpos+348.0}
G2 X-497.5 Y152.5 R497.5 Z{var.zpos+348.5}
G2 X497.5 Y152.5 R497.5 Z{var.zpos+348.5}
G2 X-497.5 Y152.5 R497.5 Z{var.zpos+349.0}
G2 X497.5 Y152.5 R497.5 Z{var.zpos+349.0}
G2 X-497.5 Y152.5 R497.5 Z{var.zpos+349.5}
G2 X497.5 Y152.5 R497.5 Z{var.zpos+349.5}
G2 X-497.5 Y152.5 R497.5 Z{var.zpos+350.0}
G2 X497.5 Y152.5 R497.5 Z{var.zpos+350.0}
G2 X-497.5 Y152.5 R497.5 Z{var.zpos+350.5}
G2 X497.5 Y152.5 R497.5 Z{var.zpos+350.5}
G2 X-497.5 Y152.5 R497.5 Z{var.zpos+351.0}
G2 X497.5 Y152.5 R497.5 Z{var.zpos+351.0}
G2 X-497.5 Y152.5 R497.5 Z{var.zpos+351.5}
G2 X497.5 Y152.5 R497.5 Z{var.zpos+351.5}
G2 X-497.5 Y152.5 R497.5 Z{var.zpos+352.0}
G2 X497.5 Y152.5 R497.5 Z{var.zpos+352.0}
G2 X-497.5 Y152.5 R497.5 Z{var.zpos+352.5}
G2 X497.5 Y152.5 R497.5 Z{var.zpos+352.5}
G2 X-497.5 Y152.5 R497.5 Z{var.zpos+353.0}
G2 X497.5 Y152.5 R497.5 Z{var.zpos+353.0}
G2 X-497.5 Y152.5 R497.5 Z{var.zpos+353.5}
G2 X497.5 Y152.5 R497.5 Z{var.zpos+353.5}
G2 X-497.5 Y152.5 R497.5 Z{var.zpos+354.0}
G2 X497.5 Y152.5 R497.5 Z{var.zpos+354.0}
G2 X-497.5 Y152.5 R497.5 Z{var.zpos+354.5}
G2 X497.5 Y152.5 R497.5 Z{var.zpos+354.5}
G2 X-497.5 Y152.5 R497.5 Z{var.zpos+355.0}
G2 X497.5 Y152.5 R497.5 Z{var.zpos+355.0}
G2 X-497.5 Y152.5 R497.5 Z{var.zpos+355.5}
G2 X497.5 Y152.5 R497.5 Z{var.zpos+355.5}
G2 X-497.5 Y152.5 R497.5 Z{var.zpos+356.0}
G2 X497.5 Y152.5 R497.5 Z{var.zpos+356.0}
G2 X-497.5 Y152.5 R497.5 Z{var.zpos+356.5}
G2 X497.5 Y152.5 R497.5 Z{var.zpos+356.5}
G2 X-497.5 Y152.5 R497.5 Z{var.zpos+357.0}
G2 X497.5 Y152.5 R497.5 Z{var.zpos+357.0}
G2 X-497.5 Y152.5 R497.5 Z{var.zpos+357.5}
G2 X497.5 Y152.5 R497.5 Z{var.zpos+357.5}
G2 X-497.5 Y152.5 R497.5 Z{var.zpos+358.0}
G2 X497.5 Y152.5 R497.5 Z{var.zpos+358.0}
G2 X-497.5 Y152.5 R497.5 Z{var.zpos+358.5}
G2 X497.5 Y152.5 R497.5 Z{var.zpos+358.5}
G2 X-497.5 Y152.5 R497.5 Z{var.zpos+359.0}
G2 X497.5 Y152.5 R497.5 Z{var.zpos+359.0}
G2 X-497.5 Y152.5 R497.5 Z{var.zpos+359.5}
G2 X497.5 Y152.5 R497.5 Z{var.zpos+359.5}
G2 X-497.5 Y152.5 R497.5 Z{var.zpos+360.0}
G2 X497.5 Y152.5 R497.5 Z{var.zpos+360.0}
G2 X-497.5 Y152.5 R497.5 Z{var.zpos+360.5}
G2 X497.5 Y152.5 R497.5 Z{var.zpos+360.5}
G2 X-497.5 Y152.5 R497.5 Z{var.zpos+361.0}
G2 X497.5 Y152.5 R497.5 Z{var.zpos+361.0}
G2 X-497.5 Y152.5 R497.5 Z{var.zpos+361.5}
G2 X497.5 Y152.5 R497.5 Z{var.zpos+361.5}
G2 X-497.5 Y152.5 R497.5 Z{var.zpos+362.0}
G2 X497.5 Y152.5 R497.5 Z{var.zpos+362.0}
G2 X-497.5 Y152.5 R497.5 Z{var.zpos+362.5}
G2 X497.5 Y152.5 R497.5 Z{var.zpos+362.5}
G2 X-497.5 Y152.5 R497.5 Z{var.zpos+363.0}
G2 X497.5 Y152.5 R497.5 Z{var.zpos+363.0}
G2 X-497.5 Y152.5 R497.5 Z{var.zpos+363.5}
G2 X497.5 Y152.5 R497.5 Z{var.zpos+363.5}
G2 X-497.5 Y152.5 R497.5 Z{var.zpos+364.0}
G2 X497.5 Y152.5 R497.5 Z{var.zpos+364.0}
G2 X-497.5 Y152.5 R497.5 Z{var.zpos+364.5}
G2 X497.5 Y152.5 R497.5 Z{var.zpos+364.5}
G2 X-497.5 Y152.5 R497.5 Z{var.zpos+365.0}
G2 X497.5 Y152.5 R497.5 Z{var.zpos+365.0}
G2 X-497.5 Y152.5 R497.5 Z{var.zpos+365.5}
G2 X497.5 Y152.5 R497.5 Z{var.zpos+365.5}
G2 X-497.5 Y152.5 R497.5 Z{var.zpos+366.0}
G2 X497.5 Y152.5 R497.5 Z{var.zpos+366.0}
G2 X-497.5 Y152.5 R497.5 Z{var.zpos+366.5}
G2 X497.5 Y152.5 R497.5 Z{var.zpos+366.5}
G2 X-497.5 Y152.5 R497.5 Z{var.zpos+367.0}
G2 X497.5 Y152.5 R497.5 Z{var.zpos+367.0}
G2 X-497.5 Y152.5 R497.5 Z{var.zpos+367.5}
G2 X497.5 Y152.5 R497.5 Z{var.zpos+367.5}
G2 X-497.5 Y152.5 R497.5 Z{var.zpos+368.0}
G2 X497.5 Y152.5 R497.5 Z{var.zpos+368.0}
G2 X-497.5 Y152.5 R497.5 Z{var.zpos+368.5}
G2 X497.5 Y152.5 R497.5 Z{var.zpos+368.5}
G2 X-497.5 Y152.5 R497.5 Z{var.zpos+369.0}
G2 X497.5 Y152.5 R497.5 Z{var.zpos+369.0}
G2 X-497.5 Y152.5 R497.5 Z{var.zpos+369.5}
G2 X497.5 Y152.5 R497.5 Z{var.zpos+369.5}
G2 X-497.5 Y152.5 R497.5 Z{var.zpos+370.0}
G2 X497.5 Y152.5 R497.5 Z{var.zpos+370.0}
G2 X-497.5 Y152.5 R497.5 Z{var.zpos+370.5}
G2 X497.5 Y152.5 R497.5 Z{var.zpos+370.5}
G2 X-497.5 Y152.5 R497.5 Z{var.zpos+371.0}
G2 X497.5 Y152.5 R497.5 Z{var.zpos+371.0}
G2 X-497.5 Y152.5 R497.5 Z{var.zpos+371.5}
G2 X497.5 Y152.5 R497.5 Z{var.zpos+371.5}
G2 X-497.5 Y152.5 R497.5 Z{var.zpos+372.0}
G2 X497.5 Y152.5 R497.5 Z{var.zpos+372.0}
G2 X-497.5 Y152.5 R497.5 Z{var.zpos+372.5}
G2 X497.5 Y152.5 R497.5 Z{var.zpos+372.5}
G2 X-497.5 Y152.5 R497.5 Z{var.zpos+373.0}
G2 X497.5 Y152.5 R497.5 Z{var.zpos+373.0}
G2 X-497.5 Y152.5 R497.5 Z{var.zpos+373.5}
G2 X497.5 Y152.5 R497.5 Z{var.zpos+373.5}
G2 X-497.5 Y152.5 R497.5 Z{var.zpos+374.0}
G2 X497.5 Y152.5 R497.5 Z{var.zpos+374.0}
G2 X-497.5 Y152.5 R497.5 Z{var.zpos+374.5}
G2 X497.5 Y152.5 R497.5 Z{var.zpos+374.5}
G2 X-497.5 Y152.5 R497.5 Z{var.zpos+375.0}
G2 X497.5 Y152.5 R497.5 Z{var.zpos+375.0}
G2 X-497.5 Y152.5 R497.5 Z{var.zpos+375.5}
G2 X497.5 Y152.5 R497.5 Z{var.zpos+375.5}
G2 X-497.5 Y152.5 R497.5 Z{var.zpos+376.0}
G2 X497.5 Y152.5 R497.5 Z{var.zpos+376.0}
G2 X-497.5 Y152.5 R497.5 Z{var.zpos+376.5}
G2 X497.5 Y152.5 R497.5 Z{var.zpos+376.5}
G2 X-497.5 Y152.5 R497.5 Z{var.zpos+377.0}
G2 X497.5 Y152.5 R497.5 Z{var.zpos+377.0}
G2 X-497.5 Y152.5 R497.5 Z{var.zpos+377.5}
G2 X497.5 Y152.5 R497.5 Z{var.zpos+377.5}
G2 X-497.5 Y152.5 R497.5 Z{var.zpos+378.0}
G2 X497.5 Y152.5 R497.5 Z{var.zpos+378.0}
G2 X-497.5 Y152.5 R497.5 Z{var.zpos+378.5}
G2 X497.5 Y152.5 R497.5 Z{var.zpos+378.5}
G2 X-497.5 Y152.5 R497.5 Z{var.zpos+379.0}
G2 X497.5 Y152.5 R497.5 Z{var.zpos+379.0}
G2 X-497.5 Y152.5 R497.5 Z{var.zpos+379.5}
G2 X497.5 Y152.5 R497.5 Z{var.zpos+379.5}
G2 X-497.5 Y152.5 R497.5 Z{var.zpos+380.0}
G2 X497.5 Y152.5 R497.5 Z{var.zpos+380.0}
G2 X-497.5 Y152.5 R497.5 Z{var.zpos+380.5}
G2 X497.5 Y152.5 R497.5 Z{var.zpos+380.5}
G2 X-497.5 Y152.5 R497.5 Z{var.zpos+381.0}
G2 X497.5 Y152.5 R497.5 Z{var.zpos+381.0}
G2 X-497.5 Y152.5 R497.5 Z{var.zpos+381.5}
G2 X497.5 Y152.5 R497.5 Z{var.zpos+381.5}
G2 X-497.5 Y152.5 R497.5 Z{var.zpos+382.0}
G2 X497.5 Y152.5 R497.5 Z{var.zpos+382.0}
G2 X-497.5 Y152.5 R497.5 Z{var.zpos+382.5}
G2 X497.5 Y152.5 R497.5 Z{var.zpos+382.5}
G2 X-497.5 Y152.5 R497.5 Z{var.zpos+383.0}
G2 X497.5 Y152.5 R497.5 Z{var.zpos+383.0}
G2 X-497.5 Y152.5 R497.5 Z{var.zpos+383.5}
G2 X497.5 Y152.5 R497.5 Z{var.zpos+383.5}
G2 X-497.5 Y152.5 R497.5 Z{var.zpos+384.0}
G2 X497.5 Y152.5 R497.5 Z{var.zpos+384.0}
G2 X-497.5 Y152.5 R497.5 Z{var.zpos+384.5}
G2 X497.5 Y152.5 R497.5 Z{var.zpos+384.5}
G2 X-497.5 Y152.5 R497.5 Z{var.zpos+385.0}
G2 X497.5 Y152.5 R497.5 Z{var.zpos+385.0}
G2 X-497.5 Y152.5 R497.5 Z{var.zpos+385.5}
G2 X497.5 Y152.5 R497.5 Z{var.zpos+385.5}
G2 X-497.5 Y152.5 R497.5 Z{var.zpos+386.0}
G2 X497.5 Y152.5 R497.5 Z{var.zpos+386.0}
G2 X-497.5 Y152.5 R497.5 Z{var.zpos+386.5}
G2 X497.5 Y152.5 R497.5 Z{var.zpos+386.5}
G2 X-497.5 Y152.5 R497.5 Z{var.zpos+387.0}
G2 X497.5 Y152.5 R497.5 Z{var.zpos+387.0}
G2 X-497.5 Y152.5 R497.5 Z{var.zpos+387.5}
G2 X497.5 Y152.5 R497.5 Z{var.zpos+387.5}
G2 X-497.5 Y152.5 R497.5 Z{var.zpos+388.0}
G2 X497.5 Y152.5 R497.5 Z{var.zpos+388.0}
G2 X-497.5 Y152.5 R497.5 Z{var.zpos+388.5}
G2 X497.5 Y152.5 R497.5 Z{var.zpos+388.5}
G2 X-497.5 Y152.5 R497.5 Z{var.zpos+389.0}
G2 X497.5 Y152.5 R497.5 Z{var.zpos+389.0}
G2 X-497.5 Y152.5 R497.5 Z{var.zpos+389.5}
G2 X497.5 Y152.5 R497.5 Z{var.zpos+389.5}
G2 X-497.5 Y152.5 R497.5 Z{var.zpos+390.0}
G2 X497.5 Y152.5 R497.5 Z{var.zpos+390.0}
G2 X-497.5 Y152.5 R497.5 Z{var.zpos+390.5}
G2 X497.5 Y152.5 R497.5 Z{var.zpos+390.5}
G2 X-497.5 Y152.5 R497.5 Z{var.zpos+391.0}
G2 X497.5 Y152.5 R497.5 Z{var.zpos+391.0}
G2 X-497.5 Y152.5 R497.5 Z{var.zpos+391.5}
G2 X497.5 Y152.5 R497.5 Z{var.zpos+391.5}
G2 X-497.5 Y152.5 R497.5 Z{var.zpos+392.0}
G2 X497.5 Y152.5 R497.5 Z{var.zpos+392.0}
G2 X-497.5 Y152.5 R497.5 Z{var.zpos+392.5}
G2 X497.5 Y152.5 R497.5 Z{var.zpos+392.5}
G2 X-497.5 Y152.5 R497.5 Z{var.zpos+393.0}
G2 X497.5 Y152.5 R497.5 Z{var.zpos+393.0}
G2 X-497.5 Y152.5 R497.5 Z{var.zpos+393.5}
G2 X497.5 Y152.5 R497.5 Z{var.zpos+393.5}
G2 X-497.5 Y152.5 R497.5 Z{var.zpos+394.0}
G2 X497.5 Y152.5 R497.5 Z{var.zpos+394.0}
G2 X-497.5 Y152.5 R497.5 Z{var.zpos+394.5}
G2 X497.5 Y152.5 R497.5 Z{var.zpos+394.5}
G2 X-497.5 Y152.5 R497.5 Z{var.zpos+395.0}
G2 X497.5 Y152.5 R497.5 Z{var.zpos+395.0}
G2 X-497.5 Y152.5 R497.5 Z{var.zpos+395.5}
G2 X497.5 Y152.5 R497.5 Z{var.zpos+395.5}
G2 X-497.5 Y152.5 R497.5 Z{var.zpos+396.0}
G2 X497.5 Y152.5 R497.5 Z{var.zpos+396.0}
G2 X-497.5 Y152.5 R497.5 Z{var.zpos+396.5}
G2 X497.5 Y152.5 R497.5 Z{var.zpos+396.5}
G2 X-497.5 Y152.5 R497.5 Z{var.zpos+397.0}
G2 X497.5 Y152.5 R497.5 Z{var.zpos+397.0}
G2 X-497.5 Y152.5 R497.5 Z{var.zpos+397.5}
G2 X497.5 Y152.5 R497.5 Z{var.zpos+397.5}
G2 X-497.5 Y152.5 R497.5 Z{var.zpos+398.0}
G2 X497.5 Y152.5 R497.5 Z{var.zpos+398.0}
G2 X-497.5 Y152.5 R497.5 Z{var.zpos+398.5}
G2 X497.5 Y152.5 R497.5 Z{var.zpos+398.5}
G2 X-497.5 Y152.5 R497.5 Z{var.zpos+399.0}
G2 X497.5 Y152.5 R497.5 Z{var.zpos+399.0}
G2 X-497.5 Y152.5 R497.5 Z{var.zpos+399.5}
G2 X497.5 Y152.5 R497.5 Z{var.zpos+399.5}
G2 X-497.5 Y152.5 R497.5 Z{var.zpos+400.0}
G2 X497.5 Y152.5 R497.5 Z{var.zpos+400.0}
G2 X-497.5 Y152.5 R497.5 Z{var.zpos+400.5}
G2 X497.5 Y152.5 R497.5 Z{var.zpos+400.5}
G2 X-497.5 Y152.5 R497.5 Z{var.zpos+401.0}
G2 X497.5 Y152.5 R497.5 Z{var.zpos+401.0}
G2 X-497.5 Y152.5 R497.5 Z{var.zpos+401.5}
G2 X497.5 Y152.5 R497.5 Z{var.zpos+401.5}
G2 X-497.5 Y152.5 R497.5 Z{var.zpos+402.0}
G2 X497.5 Y152.5 R497.5 Z{var.zpos+402.0}
G2 X-497.5 Y152.5 R497.5 Z{var.zpos+402.5}
G2 X497.5 Y152.5 R497.5 Z{var.zpos+402.5}
G2 X-497.5 Y152.5 R497.5 Z{var.zpos+403.0}
G2 X497.5 Y152.5 R497.5 Z{var.zpos+403.0}
G2 X-497.5 Y152.5 R497.5 Z{var.zpos+403.5}
G2 X497.5 Y152.5 R497.5 Z{var.zpos+403.5}
G2 X-497.5 Y152.5 R497.5 Z{var.zpos+404.0}
G2 X497.5 Y152.5 R497.5 Z{var.zpos+404.0}
G2 X-497.5 Y152.5 R497.5 Z{var.zpos+404.5}
G2 X497.5 Y152.5 R497.5 Z{var.zpos+404.5}
G2 X-497.5 Y152.5 R497.5 Z{var.zpos+405.0}
G2 X497.5 Y152.5 R497.5 Z{var.zpos+405.0}
G2 X-497.5 Y152.5 R497.5 Z{var.zpos+405.5}
G2 X497.5 Y152.5 R497.5 Z{var.zpos+405.5}
G2 X-497.5 Y152.5 R497.5 Z{var.zpos+406.0}
G2 X497.5 Y152.5 R497.5 Z{var.zpos+406.0}
G2 X-497.5 Y152.5 R497.5 Z{var.zpos+406.5}
G2 X497.5 Y152.5 R497.5 Z{var.zpos+406.5}
G2 X-497.5 Y152.5 R497.5 Z{var.zpos+407.0}
G2 X497.5 Y152.5 R497.5 Z{var.zpos+407.0}
G2 X-497.5 Y152.5 R497.5 Z{var.zpos+407.5}
G2 X497.5 Y152.5 R497.5 Z{var.zpos+407.5}
G2 X-497.5 Y152.5 R497.5 Z{var.zpos+408.0}
G2 X497.5 Y152.5 R497.5 Z{var.zpos+408.0}
G2 X-497.5 Y152.5 R497.5 Z{var.zpos+408.5}
G2 X497.5 Y152.5 R497.5 Z{var.zpos+408.5}
G2 X-497.5 Y152.5 R497.5 Z{var.zpos+409.0}
G2 X497.5 Y152.5 R497.5 Z{var.zpos+409.0}
G2 X-497.5 Y152.5 R497.5 Z{var.zpos+409.5}
G2 X497.5 Y152.5 R497.5 Z{var.zpos+409.5}
G2 X-497.5 Y152.5 R497.5 Z{var.zpos+410.0}
G2 X497.5 Y152.5 R497.5 Z{var.zpos+410.0}
G2 X-497.5 Y152.5 R497.5 Z{var.zpos+410.5}
G2 X497.5 Y152.5 R497.5 Z{var.zpos+410.5}
G2 X-497.5 Y152.5 R497.5 Z{var.zpos+411.0}
G2 X497.5 Y152.5 R497.5 Z{var.zpos+411.0}
G2 X-497.5 Y152.5 R497.5 Z{var.zpos+411.5}
G2 X497.5 Y152.5 R497.5 Z{var.zpos+411.5}
G2 X-497.5 Y152.5 R497.5 Z{var.zpos+412.0}
G2 X497.5 Y152.5 R497.5 Z{var.zpos+412.0}
G2 X-497.5 Y152.5 R497.5 Z{var.zpos+412.5}
G2 X497.5 Y152.5 R497.5 Z{var.zpos+412.5}
G2 X-497.5 Y152.5 R497.5 Z{var.zpos+413.0}
G2 X497.5 Y152.5 R497.5 Z{var.zpos+413.0}
G2 X-497.5 Y152.5 R497.5 Z{var.zpos+413.5}
G2 X497.5 Y152.5 R497.5 Z{var.zpos+413.5}
G2 X-497.5 Y152.5 R497.5 Z{var.zpos+414.0}
G2 X497.5 Y152.5 R497.5 Z{var.zpos+414.0}
G2 X-497.5 Y152.5 R497.5 Z{var.zpos+414.5}
G2 X497.5 Y152.5 R497.5 Z{var.zpos+414.5}
G2 X-497.5 Y152.5 R497.5 Z{var.zpos+415.0}
G2 X497.5 Y152.5 R497.5 Z{var.zpos+415.0}
G2 X-497.5 Y152.5 R497.5 Z{var.zpos+415.5}
G2 X497.5 Y152.5 R497.5 Z{var.zpos+415.5}
G2 X-497.5 Y152.5 R497.5 Z{var.zpos+416.0}
G2 X497.5 Y152.5 R497.5 Z{var.zpos+416.0}
G2 X-497.5 Y152.5 R497.5 Z{var.zpos+416.5}
G2 X497.5 Y152.5 R497.5 Z{var.zpos+416.5}
G2 X-497.5 Y152.5 R497.5 Z{var.zpos+417.0}
G2 X497.5 Y152.5 R497.5 Z{var.zpos+417.0}
G2 X-497.5 Y152.5 R497.5 Z{var.zpos+417.5}
G2 X497.5 Y152.5 R497.5 Z{var.zpos+417.5}
G2 X-497.5 Y152.5 R497.5 Z{var.zpos+418.0}
G2 X497.5 Y152.5 R497.5 Z{var.zpos+418.0}
G2 X-497.5 Y152.5 R497.5 Z{var.zpos+418.5}
G2 X497.5 Y152.5 R497.5 Z{var.zpos+418.5}
G2 X-497.5 Y152.5 R497.5 Z{var.zpos+419.0}
G2 X497.5 Y152.5 R497.5 Z{var.zpos+419.0}
G2 X-497.5 Y152.5 R497.5 Z{var.zpos+419.5}
G2 X497.5 Y152.5 R497.5 Z{var.zpos+419.5}
G2 X-497.5 Y152.5 R497.5 Z{var.zpos+420.0}
G2 X497.5 Y152.5 R497.5 Z{var.zpos+420.0}
G2 X-497.5 Y152.5 R497.5 Z{var.zpos+420.5}
G2 X497.5 Y152.5 R497.5 Z{var.zpos+420.5}
G2 X-497.5 Y152.5 R497.5 Z{var.zpos+421.0}
G2 X497.5 Y152.5 R497.5 Z{var.zpos+421.0}
G2 X-497.5 Y152.5 R497.5 Z{var.zpos+421.5}
G2 X497.5 Y152.5 R497.5 Z{var.zpos+421.5}
G2 X-497.5 Y152.5 R497.5 Z{var.zpos+422.0}
G2 X497.5 Y152.5 R497.5 Z{var.zpos+422.0}
G2 X-497.5 Y152.5 R497.5 Z{var.zpos+422.5}
G2 X497.5 Y152.5 R497.5 Z{var.zpos+422.5}
G2 X-497.5 Y152.5 R497.5 Z{var.zpos+423.0}
G2 X497.5 Y152.5 R497.5 Z{var.zpos+423.0}
G2 X-497.5 Y152.5 R497.5 Z{var.zpos+423.5}
G2 X497.5 Y152.5 R497.5 Z{var.zpos+423.5}
G2 X-497.5 Y152.5 R497.5 Z{var.zpos+424.0}
G2 X497.5 Y152.5 R497.5 Z{var.zpos+424.0}
G2 X-497.5 Y152.5 R497.5 Z{var.zpos+424.5}
G2 X497.5 Y152.5 R497.5 Z{var.zpos+424.5}
G2 X-497.5 Y152.5 R497.5 Z{var.zpos+425.0}
G2 X497.5 Y152.5 R497.5 Z{var.zpos+425.0}
G2 X-497.5 Y152.5 R497.5 Z{var.zpos+425.5}
G2 X497.5 Y152.5 R497.5 Z{var.zpos+425.5}
G2 X-497.5 Y152.5 R497.5 Z{var.zpos+426.0}
G2 X497.5 Y152.5 R497.5 Z{var.zpos+426.0}
G2 X-497.5 Y152.5 R497.5 Z{var.zpos+426.5}
G2 X497.5 Y152.5 R497.5 Z{var.zpos+426.5}
G2 X-497.5 Y152.5 R497.5 Z{var.zpos+427.0}
G2 X497.5 Y152.5 R497.5 Z{var.zpos+427.0}
G2 X-497.5 Y152.5 R497.5 Z{var.zpos+427.5}
G2 X497.5 Y152.5 R497.5 Z{var.zpos+427.5}
G2 X-497.5 Y152.5 R497.5 Z{var.zpos+428.0}
G2 X497.5 Y152.5 R497.5 Z{var.zpos+428.0}
G2 X-497.5 Y152.5 R497.5 Z{var.zpos+428.5}
G2 X497.5 Y152.5 R497.5 Z{var.zpos+428.5}
G2 X-497.5 Y152.5 R497.5 Z{var.zpos+429.0}
G2 X497.5 Y152.5 R497.5 Z{var.zpos+429.0}
G2 X-497.5 Y152.5 R497.5 Z{var.zpos+429.5}
G2 X497.5 Y152.5 R497.5 Z{var.zpos+429.5}
G2 X-497.5 Y152.5 R497.5 Z{var.zpos+430.0}
G2 X497.5 Y152.5 R497.5 Z{var.zpos+430.0}
G2 X-497.5 Y152.5 R497.5 Z{var.zpos+430.5}
G2 X497.5 Y152.5 R497.5 Z{var.zpos+430.5}
G2 X-497.5 Y152.5 R497.5 Z{var.zpos+431.0}
G2 X497.5 Y152.5 R497.5 Z{var.zpos+431.0}
G2 X-497.5 Y152.5 R497.5 Z{var.zpos+431.5}
G2 X497.5 Y152.5 R497.5 Z{var.zpos+431.5}
G2 X-497.5 Y152.5 R497.5 Z{var.zpos+432.0}
G2 X497.5 Y152.5 R497.5 Z{var.zpos+432.0}
G2 X-497.5 Y152.5 R497.5 Z{var.zpos+432.5}
G2 X497.5 Y152.5 R497.5 Z{var.zpos+432.5}
G2 X-497.5 Y152.5 R497.5 Z{var.zpos+433.0}
G2 X497.5 Y152.5 R497.5 Z{var.zpos+433.0}
G2 X-497.5 Y152.5 R497.5 Z{var.zpos+433.5}
G2 X497.5 Y152.5 R497.5 Z{var.zpos+433.5}
G2 X-497.5 Y152.5 R497.5 Z{var.zpos+434.0}
G2 X497.5 Y152.5 R497.5 Z{var.zpos+434.0}
G2 X-497.5 Y152.5 R497.5 Z{var.zpos+434.5}
G2 X497.5 Y152.5 R497.5 Z{var.zpos+434.5}
G2 X-497.5 Y152.5 R497.5 Z{var.zpos+435.0}
G2 X497.5 Y152.5 R497.5 Z{var.zpos+435.0}
G2 X-497.5 Y152.5 R497.5 Z{var.zpos+435.5}
G2 X497.5 Y152.5 R497.5 Z{var.zpos+435.5}
G2 X-497.5 Y152.5 R497.5 Z{var.zpos+436.0}
G2 X497.5 Y152.5 R497.5 Z{var.zpos+436.0}
G2 X-497.5 Y152.5 R497.5 Z{var.zpos+436.5}
G2 X497.5 Y152.5 R497.5 Z{var.zpos+436.5}
G2 X-497.5 Y152.5 R497.5 Z{var.zpos+437.0}
G2 X497.5 Y152.5 R497.5 Z{var.zpos+437.0}
G2 X-497.5 Y152.5 R497.5 Z{var.zpos+437.5}
G2 X497.5 Y152.5 R497.5 Z{var.zpos+437.5}
G2 X-497.5 Y152.5 R497.5 Z{var.zpos+438.0}
G2 X497.5 Y152.5 R497.5 Z{var.zpos+438.0}
G2 X-497.5 Y152.5 R497.5 Z{var.zpos+438.5}
G2 X497.5 Y152.5 R497.5 Z{var.zpos+438.5}
G2 X-497.5 Y152.5 R497.5 Z{var.zpos+439.0}
G2 X497.5 Y152.5 R497.5 Z{var.zpos+439.0}
G2 X-497.5 Y152.5 R497.5 Z{var.zpos+439.5}
G2 X497.5 Y152.5 R497.5 Z{var.zpos+439.5}
G2 X-497.5 Y152.5 R497.5 Z{var.zpos+440.0}
G2 X497.5 Y152.5 R497.5 Z{var.zpos+440.0}
G2 X-497.5 Y152.5 R497.5 Z{var.zpos+440.5}
G2 X497.5 Y152.5 R497.5 Z{var.zpos+440.5}
G2 X-497.5 Y152.5 R497.5 Z{var.zpos+441.0}
G2 X497.5 Y152.5 R497.5 Z{var.zpos+441.0}
G2 X-497.5 Y152.5 R497.5 Z{var.zpos+441.5}
G2 X497.5 Y152.5 R497.5 Z{var.zpos+441.5}
G2 X-497.5 Y152.5 R497.5 Z{var.zpos+442.0}
G2 X497.5 Y152.5 R497.5 Z{var.zpos+442.0}
G2 X-497.5 Y152.5 R497.5 Z{var.zpos+442.5}
G2 X497.5 Y152.5 R497.5 Z{var.zpos+442.5}
G2 X-497.5 Y152.5 R497.5 Z{var.zpos+443.0}
G2 X497.5 Y152.5 R497.5 Z{var.zpos+443.0}
G2 X-497.5 Y152.5 R497.5 Z{var.zpos+443.5}
G2 X497.5 Y152.5 R497.5 Z{var.zpos+443.5}
G2 X-497.5 Y152.5 R497.5 Z{var.zpos+444.0}
G2 X497.5 Y152.5 R497.5 Z{var.zpos+444.0}
G2 X-497.5 Y152.5 R497.5 Z{var.zpos+444.5}
G2 X497.5 Y152.5 R497.5 Z{var.zpos+444.5}
G2 X-497.5 Y152.5 R497.5 Z{var.zpos+445.0}
G2 X497.5 Y152.5 R497.5 Z{var.zpos+445.0}
G2 X-497.5 Y152.5 R497.5 Z{var.zpos+445.5}
G2 X497.5 Y152.5 R497.5 Z{var.zpos+445.5}
G2 X-497.5 Y152.5 R497.5 Z{var.zpos+446.0}
G2 X497.5 Y152.5 R497.5 Z{var.zpos+446.0}
G2 X-497.5 Y152.5 R497.5 Z{var.zpos+446.5}
G2 X497.5 Y152.5 R497.5 Z{var.zpos+446.5}
G2 X-497.5 Y152.5 R497.5 Z{var.zpos+447.0}
G2 X497.5 Y152.5 R497.5 Z{var.zpos+447.0}
G2 X-497.5 Y152.5 R497.5 Z{var.zpos+447.5}
G2 X497.5 Y152.5 R497.5 Z{var.zpos+447.5}
G2 X-497.5 Y152.5 R497.5 Z{var.zpos+448.0}
G2 X497.5 Y152.5 R497.5 Z{var.zpos+448.0}
G2 X-497.5 Y152.5 R497.5 Z{var.zpos+448.5}
G2 X497.5 Y152.5 R497.5 Z{var.zpos+448.5}
G2 X-497.5 Y152.5 R497.5 Z{var.zpos+449.0}
G2 X497.5 Y152.5 R497.5 Z{var.zpos+449.0}
G2 X-497.5 Y152.5 R497.5 Z{var.zpos+449.5}
G2 X497.5 Y152.5 R497.5 Z{var.zpos+449.5}
G2 X-497.5 Y152.5 R497.5 Z{var.zpos+450.0}
G2 X497.5 Y152.5 R497.5 Z{var.zpos+450.0}
G2 X-497.5 Y152.5 R497.5 Z{var.zpos+450.5}
G2 X497.5 Y152.5 R497.5 Z{var.zpos+450.5}
G2 X-497.5 Y152.5 R497.5 Z{var.zpos+451.0}
G2 X497.5 Y152.5 R497.5 Z{var.zpos+451.0}
G2 X-497.5 Y152.5 R497.5 Z{var.zpos+451.5}
G2 X497.5 Y152.5 R497.5 Z{var.zpos+451.5}
G2 X-497.5 Y152.5 R497.5 Z{var.zpos+452.0}
G2 X497.5 Y152.5 R497.5 Z{var.zpos+452.0}
G2 X-497.5 Y152.5 R497.5 Z{var.zpos+452.5}
G2 X497.5 Y152.5 R497.5 Z{var.zpos+452.5}
G2 X-497.5 Y152.5 R497.5 Z{var.zpos+453.0}
G2 X497.5 Y152.5 R497.5 Z{var.zpos+453.0}
G2 X-497.5 Y152.5 R497.5 Z{var.zpos+453.5}
G2 X497.5 Y152.5 R497.5 Z{var.zpos+453.5}
G2 X-497.5 Y152.5 R497.5 Z{var.zpos+454.0}
G2 X497.5 Y152.5 R497.5 Z{var.zpos+454.0}
G2 X-497.5 Y152.5 R497.5 Z{var.zpos+454.5}
G2 X497.5 Y152.5 R497.5 Z{var.zpos+454.5}
G2 X-497.5 Y152.5 R497.5 Z{var.zpos+455.0}
G2 X497.5 Y152.5 R497.5 Z{var.zpos+455.0}
G2 X-497.5 Y152.5 R497.5 Z{var.zpos+455.5}
G2 X497.5 Y152.5 R497.5 Z{var.zpos+455.5}
G2 X-497.5 Y152.5 R497.5 Z{var.zpos+456.0}
G2 X497.5 Y152.5 R497.5 Z{var.zpos+456.0}
G2 X-497.5 Y152.5 R497.5 Z{var.zpos+456.5}
G2 X497.5 Y152.5 R497.5 Z{var.zpos+456.5}
G2 X-497.5 Y152.5 R497.5 Z{var.zpos+457.0}
G2 X497.5 Y152.5 R497.5 Z{var.zpos+457.0}
G2 X-497.5 Y152.5 R497.5 Z{var.zpos+457.5}
G2 X497.5 Y152.5 R497.5 Z{var.zpos+457.5}
G2 X-497.5 Y152.5 R497.5 Z{var.zpos+458.0}
G2 X497.5 Y152.5 R497.5 Z{var.zpos+458.0}
G2 X-497.5 Y152.5 R497.5 Z{var.zpos+458.5}
G2 X497.5 Y152.5 R497.5 Z{var.zpos+458.5}
G2 X-497.5 Y152.5 R497.5 Z{var.zpos+459.0}
G2 X497.5 Y152.5 R497.5 Z{var.zpos+459.0}
G2 X-497.5 Y152.5 R497.5 Z{var.zpos+459.5}
G2 X497.5 Y152.5 R497.5 Z{var.zpos+459.5}
G2 X-497.5 Y152.5 R497.5 Z{var.zpos+460.0}
G2 X497.5 Y152.5 R497.5 Z{var.zpos+460.0}
G2 X-497.5 Y152.5 R497.5 Z{var.zpos+460.5}
G2 X497.5 Y152.5 R497.5 Z{var.zpos+460.5}
G2 X-497.5 Y152.5 R497.5 Z{var.zpos+461.0}
G2 X497.5 Y152.5 R497.5 Z{var.zpos+461.0}
G2 X-497.5 Y152.5 R497.5 Z{var.zpos+461.5}
G2 X497.5 Y152.5 R497.5 Z{var.zpos+461.5}
G2 X-497.5 Y152.5 R497.5 Z{var.zpos+462.0}
G2 X497.5 Y152.5 R497.5 Z{var.zpos+462.0}
G2 X-497.5 Y152.5 R497.5 Z{var.zpos+462.5}
G2 X497.5 Y152.5 R497.5 Z{var.zpos+462.5}
G2 X-497.5 Y152.5 R497.5 Z{var.zpos+463.0}
G2 X497.5 Y152.5 R497.5 Z{var.zpos+463.0}
G2 X-497.5 Y152.5 R497.5 Z{var.zpos+463.5}
G2 X497.5 Y152.5 R497.5 Z{var.zpos+463.5}
G2 X-497.5 Y152.5 R497.5 Z{var.zpos+464.0}
G2 X497.5 Y152.5 R497.5 Z{var.zpos+464.0}
G2 X-497.5 Y152.5 R497.5 Z{var.zpos+464.5}
G2 X497.5 Y152.5 R497.5 Z{var.zpos+464.5}
G2 X-497.5 Y152.5 R497.5 Z{var.zpos+465.0}
G2 X497.5 Y152.5 R497.5 Z{var.zpos+465.0}
G2 X-497.5 Y152.5 R497.5 Z{var.zpos+465.5}
G2 X497.5 Y152.5 R497.5 Z{var.zpos+465.5}
G2 X-497.5 Y152.5 R497.5 Z{var.zpos+466.0}
G2 X497.5 Y152.5 R497.5 Z{var.zpos+466.0}
G2 X-497.5 Y152.5 R497.5 Z{var.zpos+466.5}
G2 X497.5 Y152.5 R497.5 Z{var.zpos+466.5}
G2 X-497.5 Y152.5 R497.5 Z{var.zpos+467.0}
G2 X497.5 Y152.5 R497.5 Z{var.zpos+467.0}
G2 X-497.5 Y152.5 R497.5 Z{var.zpos+467.5}
G2 X497.5 Y152.5 R497.5 Z{var.zpos+467.5}
G2 X-497.5 Y152.5 R497.5 Z{var.zpos+468.0}
G2 X497.5 Y152.5 R497.5 Z{var.zpos+468.0}
G2 X-497.5 Y152.5 R497.5 Z{var.zpos+468.5}
G2 X497.5 Y152.5 R497.5 Z{var.zpos+468.5}
G2 X-497.5 Y152.5 R497.5 Z{var.zpos+469.0}
G2 X497.5 Y152.5 R497.5 Z{var.zpos+469.0}
G2 X-497.5 Y152.5 R497.5 Z{var.zpos+469.5}
G2 X497.5 Y152.5 R497.5 Z{var.zpos+469.5}
G2 X-497.5 Y152.5 R497.5 Z{var.zpos+470.0}
G2 X497.5 Y152.5 R497.5 Z{var.zpos+470.0}
G2 X-497.5 Y152.5 R497.5 Z{var.zpos+470.5}
G2 X497.5 Y152.5 R497.5 Z{var.zpos+470.5}
G2 X-497.5 Y152.5 R497.5 Z{var.zpos+471.0}
G2 X497.5 Y152.5 R497.5 Z{var.zpos+471.0}
G2 X-497.5 Y152.5 R497.5 Z{var.zpos+471.5}
G2 X497.5 Y152.5 R497.5 Z{var.zpos+471.5}
G2 X-497.5 Y152.5 R497.5 Z{var.zpos+472.0}
G2 X497.5 Y152.5 R497.5 Z{var.zpos+472.0}
G2 X-497.5 Y152.5 R497.5 Z{var.zpos+472.5}
G2 X497.5 Y152.5 R497.5 Z{var.zpos+472.5}
G2 X-497.5 Y152.5 R497.5 Z{var.zpos+473.0}
G2 X497.5 Y152.5 R497.5 Z{var.zpos+473.0}
G2 X-497.5 Y152.5 R497.5 Z{var.zpos+473.5}
G2 X497.5 Y152.5 R497.5 Z{var.zpos+473.5}
G2 X-497.5 Y152.5 R497.5 Z{var.zpos+474.0}
G2 X497.5 Y152.5 R497.5 Z{var.zpos+474.0}
G2 X-497.5 Y152.5 R497.5 Z{var.zpos+474.5}
G2 X497.5 Y152.5 R497.5 Z{var.zpos+474.5}
G2 X-497.5 Y152.5 R497.5 Z{var.zpos+475.0}
G2 X497.5 Y152.5 R497.5 Z{var.zpos+475.0}
G2 X-497.5 Y152.5 R497.5 Z{var.zpos+475.5}
G2 X497.5 Y152.5 R497.5 Z{var.zpos+475.5}
G2 X-497.5 Y152.5 R497.5 Z{var.zpos+476.0}
G2 X497.5 Y152.5 R497.5 Z{var.zpos+476.0}
G2 X-497.5 Y152.5 R497.5 Z{var.zpos+476.5}
G2 X497.5 Y152.5 R497.5 Z{var.zpos+476.5}
G2 X-497.5 Y152.5 R497.5 Z{var.zpos+477.0}
G2 X497.5 Y152.5 R497.5 Z{var.zpos+477.0}
G2 X-497.5 Y152.5 R497.5 Z{var.zpos+477.5}
G2 X497.5 Y152.5 R497.5 Z{var.zpos+477.5}
G2 X-497.5 Y152.5 R497.5 Z{var.zpos+478.0}
G2 X497.5 Y152.5 R497.5 Z{var.zpos+478.0}
G2 X-497.5 Y152.5 R497.5 Z{var.zpos+478.5}
G2 X497.5 Y152.5 R497.5 Z{var.zpos+478.5}
G2 X-497.5 Y152.5 R497.5 Z{var.zpos+479.0}
G2 X497.5 Y152.5 R497.5 Z{var.zpos+479.0}
G2 X-497.5 Y152.5 R497.5 Z{var.zpos+479.5}
G2 X497.5 Y152.5 R497.5 Z{var.zpos+479.5}
G2 X-497.5 Y152.5 R497.5 Z{var.zpos+480.0}
G2 X497.5 Y152.5 R497.5 Z{var.zpos+480.0}
G2 X-497.5 Y152.5 R497.5 Z{var.zpos+480.5}
G2 X497.5 Y152.5 R497.5 Z{var.zpos+480.5}
G2 X-497.5 Y152.5 R497.5 Z{var.zpos+481.0}
G2 X497.5 Y152.5 R497.5 Z{var.zpos+481.0}
G2 X-497.5 Y152.5 R497.5 Z{var.zpos+481.5}
G2 X497.5 Y152.5 R497.5 Z{var.zpos+481.5}
G2 X-497.5 Y152.5 R497.5 Z{var.zpos+482.0}
G2 X497.5 Y152.5 R497.5 Z{var.zpos+482.0}
G2 X-497.5 Y152.5 R497.5 Z{var.zpos+482.5}
G2 X497.5 Y152.5 R497.5 Z{var.zpos+482.5}
G2 X-497.5 Y152.5 R497.5 Z{var.zpos+483.0}
G2 X497.5 Y152.5 R497.5 Z{var.zpos+483.0}
G2 X-497.5 Y152.5 R497.5 Z{var.zpos+483.5}
G2 X497.5 Y152.5 R497.5 Z{var.zpos+483.5}
G2 X-497.5 Y152.5 R497.5 Z{var.zpos+484.0}
G2 X497.5 Y152.5 R497.5 Z{var.zpos+484.0}
G2 X-497.5 Y152.5 R497.5 Z{var.zpos+484.5}
G2 X497.5 Y152.5 R497.5 Z{var.zpos+484.5}
G2 X-497.5 Y152.5 R497.5 Z{var.zpos+485.0}
G2 X497.5 Y152.5 R497.5 Z{var.zpos+485.0}
G2 X-497.5 Y152.5 R497.5 Z{var.zpos+485.5}
G2 X497.5 Y152.5 R497.5 Z{var.zpos+485.5}
G2 X-497.5 Y152.5 R497.5 Z{var.zpos+486.0}
G2 X497.5 Y152.5 R497.5 Z{var.zpos+486.0}
G2 X-497.5 Y152.5 R497.5 Z{var.zpos+486.5}
G2 X497.5 Y152.5 R497.5 Z{var.zpos+486.5}
G2 X-497.5 Y152.5 R497.5 Z{var.zpos+487.0}
G2 X497.5 Y152.5 R497.5 Z{var.zpos+487.0}
G2 X-497.5 Y152.5 R497.5 Z{var.zpos+487.5}
G2 X497.5 Y152.5 R497.5 Z{var.zpos+487.5}
G2 X-497.5 Y152.5 R497.5 Z{var.zpos+488.0}
G2 X497.5 Y152.5 R497.5 Z{var.zpos+488.0}
G2 X-497.5 Y152.5 R497.5 Z{var.zpos+488.5}
G2 X497.5 Y152.5 R497.5 Z{var.zpos+488.5}
G2 X-497.5 Y152.5 R497.5 Z{var.zpos+489.0}
G2 X497.5 Y152.5 R497.5 Z{var.zpos+489.0}
G2 X-497.5 Y152.5 R497.5 Z{var.zpos+489.5}
G2 X497.5 Y152.5 R497.5 Z{var.zpos+489.5}
G2 X-497.5 Y152.5 R497.5 Z{var.zpos+490.0}
G2 X497.5 Y152.5 R497.5 Z{var.zpos+490.0}
G2 X-497.5 Y152.5 R497.5 Z{var.zpos+490.5}
G2 X497.5 Y152.5 R497.5 Z{var.zpos+490.5}
G2 X-497.5 Y152.5 R497.5 Z{var.zpos+491.0}
G2 X497.5 Y152.5 R497.5 Z{var.zpos+491.0}
G2 X-497.5 Y152.5 R497.5 Z{var.zpos+491.5}
G2 X497.5 Y152.5 R497.5 Z{var.zpos+491.5}
G2 X-497.5 Y152.5 R497.5 Z{var.zpos+492.0}
G2 X497.5 Y152.5 R497.5 Z{var.zpos+492.0}
G2 X-497.5 Y152.5 R497.5 Z{var.zpos+492.5}
G2 X497.5 Y152.5 R497.5 Z{var.zpos+492.5}
G2 X-497.5 Y152.5 R497.5 Z{var.zpos+493.0}
G2 X497.5 Y152.5 R497.5 Z{var.zpos+493.0}
G2 X-497.5 Y152.5 R497.5 Z{var.zpos+493.5}
G2 X497.5 Y152.5 R497.5 Z{var.zpos+493.5}
G2 X-497.5 Y152.5 R497.5 Z{var.zpos+494.0}
G2 X497.5 Y152.5 R497.5 Z{var.zpos+494.0}
G2 X-497.5 Y152.5 R497.5 Z{var.zpos+494.5}
G2 X497.5 Y152.5 R497.5 Z{var.zpos+494.5}
G2 X-497.5 Y152.5 R497.5 Z{var.zpos+495.0}
G2 X497.5 Y152.5 R497.5 Z{var.zpos+495.0}
G2 X-497.5 Y152.5 R497.5 Z{var.zpos+495.5}
G2 X497.5 Y152.5 R497.5 Z{var.zpos+495.5}
G2 X-497.5 Y152.5 R497.5 Z{var.zpos+496.0}
G2 X497.5 Y152.5 R497.5 Z{var.zpos+496.0}
G2 X-497.5 Y152.5 R497.5 Z{var.zpos+496.5}
G2 X497.5 Y152.5 R497.5 Z{var.zpos+496.5}
G2 X-497.5 Y152.5 R497.5 Z{var.zpos+497.0}
G2 X497.5 Y152.5 R497.5 Z{var.zpos+497.0}
G2 X-497.5 Y152.5 R497.5 Z{var.zpos+497.5}
G2 X497.5 Y152.5 R497.5 Z{var.zpos+497.5}
G2 X-497.5 Y152.5 R497.5 Z{var.zpos+498.0}
G2 X497.5 Y152.5 R497.5 Z{var.zpos+498.0}
G2 X-497.5 Y152.5 R497.5 Z{var.zpos+498.5}
G2 X497.5 Y152.5 R497.5 Z{var.zpos+498.5}
G2 X-497.5 Y152.5 R497.5 Z{var.zpos+499.0}
G2 X497.5 Y152.5 R497.5 Z{var.zpos+499.0}
G2 X-497.5 Y152.5 R497.5 Z{var.zpos+499.5}
G2 X497.5 Y152.5 R497.5 Z{var.zpos+499.5}
G2 X-497.5 Y152.5 R497.5 Z{var.zpos+500.0}
G2 X497.5 Y152.5 R497.5 Z{var.zpos+500.0}
G2 X-497.5 Y152.5 R497.5 Z{var.zpos+500.5}
G2 X497.5 Y152.5 R497.5 Z{var.zpos+500.5}
G2 X-497.5 Y152.5 R497.5 Z{var.zpos+501.0}
G2 X497.5 Y152.5 R497.5 Z{var.zpos+501.0}
G2 X-497.5 Y152.5 R497.5 Z{var.zpos+501.5}
G2 X497.5 Y152.5 R497.5 Z{var.zpos+501.5}
G2 X-497.5 Y152.5 R497.5 Z{var.zpos+502.0}
G2 X497.5 Y152.5 R497.5 Z{var.zpos+502.0}
G2 X-497.5 Y152.5 R497.5 Z{var.zpos+502.5}
G2 X497.5 Y152.5 R497.5 Z{var.zpos+502.5}
G2 X-497.5 Y152.5 R497.5 Z{var.zpos+503.0}
G2 X497.5 Y152.5 R497.5 Z{var.zpos+503.0}
G2 X-497.5 Y152.5 R497.5 Z{var.zpos+503.5}
G2 X497.5 Y152.5 R497.5 Z{var.zpos+503.5}
G2 X-497.5 Y152.5 R497.5 Z{var.zpos+504.0}
G2 X497.5 Y152.5 R497.5 Z{var.zpos+504.0}
G2 X-497.5 Y152.5 R497.5 Z{var.zpos+504.5}
G2 X497.5 Y152.5 R497.5 Z{var.zpos+504.5}
G2 X-497.5 Y152.5 R497.5 Z{var.zpos+505.0}
G2 X497.5 Y152.5 R497.5 Z{var.zpos+505.0}
G2 X-497.5 Y152.5 R497.5 Z{var.zpos+505.5}
G2 X497.5 Y152.5 R497.5 Z{var.zpos+505.5}
G2 X-497.5 Y152.5 R497.5 Z{var.zpos+506.0}
G2 X497.5 Y152.5 R497.5 Z{var.zpos+506.0}
G2 X-497.5 Y152.5 R497.5 Z{var.zpos+506.5}
G2 X497.5 Y152.5 R497.5 Z{var.zpos+506.5}
G2 X-497.5 Y152.5 R497.5 Z{var.zpos+507.0}
G2 X497.5 Y152.5 R497.5 Z{var.zpos+507.0}
G2 X-497.5 Y152.5 R497.5 Z{var.zpos+507.5}
G2 X497.5 Y152.5 R497.5 Z{var.zpos+507.5}
G2 X-497.5 Y152.5 R497.5 Z{var.zpos+508.0}
G2 X497.5 Y152.5 R497.5 Z{var.zpos+508.0}
G2 X-497.5 Y152.5 R497.5 Z{var.zpos+508.5}
G2 X497.5 Y152.5 R497.5 Z{var.zpos+508.5}
G2 X-497.5 Y152.5 R497.5 Z{var.zpos+509.0}
G2 X497.5 Y152.5 R497.5 Z{var.zpos+509.0}
G2 X-497.5 Y152.5 R497.5 Z{var.zpos+509.5}
G2 X497.5 Y152.5 R497.5 Z{var.zpos+509.5}
G2 X-497.5 Y152.5 R497.5 Z{var.zpos+510.0}
G2 X497.5 Y152.5 R497.5 Z{var.zpos+510.0}
G2 X-497.5 Y152.5 R497.5 Z{var.zpos+510.5}
G2 X497.5 Y152.5 R497.5 Z{var.zpos+510.5}
G2 X-497.5 Y152.5 R497.5 Z{var.zpos+511.0}
G2 X497.5 Y152.5 R497.5 Z{var.zpos+511.0}
G2 X-497.5 Y152.5 R497.5 Z{var.zpos+511.5}
G2 X497.5 Y152.5 R497.5 Z{var.zpos+511.5}
G2 X-497.5 Y152.5 R497.5 Z{var.zpos+512.0}
G2 X497.5 Y152.5 R497.5 Z{var.zpos+512.0}
G2 X-497.5 Y152.5 R497.5 Z{var.zpos+512.5}
G2 X497.5 Y152.5 R497.5 Z{var.zpos+512.5}
G2 X-497.5 Y152.5 R497.5 Z{var.zpos+513.0}
G2 X497.5 Y152.5 R497.5 Z{var.zpos+513.0}
G2 X-497.5 Y152.5 R497.5 Z{var.zpos+513.5}
G2 X497.5 Y152.5 R497.5 Z{var.zpos+513.5}
G2 X-497.5 Y152.5 R497.5 Z{var.zpos+514.0}
G2 X497.5 Y152.5 R497.5 Z{var.zpos+514.0}
G2 X-497.5 Y152.5 R497.5 Z{var.zpos+514.5}
G2 X497.5 Y152.5 R497.5 Z{var.zpos+514.5}
G2 X-497.5 Y152.5 R497.5 Z{var.zpos+515.0}
G2 X497.5 Y152.5 R497.5 Z{var.zpos+515.0}
G2 X-497.5 Y152.5 R497.5 Z{var.zpos+515.5}
G2 X497.5 Y152.5 R497.5 Z{var.zpos+515.5}
G2 X-497.5 Y152.5 R497.5 Z{var.zpos+516.0}
G2 X497.5 Y152.5 R497.5 Z{var.zpos+516.0}
G2 X-497.5 Y152.5 R497.5 Z{var.zpos+516.5}
G2 X497.5 Y152.5 R497.5 Z{var.zpos+516.5}
G2 X-497.5 Y152.5 R497.5 Z{var.zpos+517.0}
G2 X497.5 Y152.5 R497.5 Z{var.zpos+517.0}
G2 X-497.5 Y152.5 R497.5 Z{var.zpos+517.5}
G2 X497.5 Y152.5 R497.5 Z{var.zpos+517.5}
G2 X-497.5 Y152.5 R497.5 Z{var.zpos+518.0}
G2 X497.5 Y152.5 R497.5 Z{var.zpos+518.0}
G2 X-497.5 Y152.5 R497.5 Z{var.zpos+518.5}
G2 X497.5 Y152.5 R497.5 Z{var.zpos+518.5}
G2 X-497.5 Y152.5 R497.5 Z{var.zpos+519.0}
G2 X497.5 Y152.5 R497.5 Z{var.zpos+519.0}
G2 X-497.5 Y152.5 R497.5 Z{var.zpos+519.5}
G2 X497.5 Y152.5 R497.5 Z{var.zpos+519.5}
G2 X-497.5 Y152.5 R497.5 Z{var.zpos+520.0}
G2 X497.5 Y152.5 R497.5 Z{var.zpos+520.0}
G2 X-497.5 Y152.5 R497.5 Z{var.zpos+520.5}
G2 X497.5 Y152.5 R497.5 Z{var.zpos+520.5}
G2 X-497.5 Y152.5 R497.5 Z{var.zpos+521.0}
G2 X497.5 Y152.5 R497.5 Z{var.zpos+521.0}
G2 X-497.5 Y152.5 R497.5 Z{var.zpos+521.5}
G2 X497.5 Y152.5 R497.5 Z{var.zpos+521.5}
G2 X-497.5 Y152.5 R497.5 Z{var.zpos+522.0}
G2 X497.5 Y152.5 R497.5 Z{var.zpos+522.0}
G2 X-497.5 Y152.5 R497.5 Z{var.zpos+522.5}
G2 X497.5 Y152.5 R497.5 Z{var.zpos+522.5}
G2 X-497.5 Y152.5 R497.5 Z{var.zpos+523.0}
G2 X497.5 Y152.5 R497.5 Z{var.zpos+523.0}
G2 X-497.5 Y152.5 R497.5 Z{var.zpos+523.5}
G2 X497.5 Y152.5 R497.5 Z{var.zpos+523.5}
G2 X-497.5 Y152.5 R497.5 Z{var.zpos+524.0}
G2 X497.5 Y152.5 R497.5 Z{var.zpos+524.0}
G2 X-497.5 Y152.5 R497.5 Z{var.zpos+524.5}
G2 X497.5 Y152.5 R497.5 Z{var.zpos+524.5}
G2 X-497.5 Y152.5 R497.5 Z{var.zpos+525.0}
G2 X497.5 Y152.5 R497.5 Z{var.zpos+525.0}
G2 X-497.5 Y152.5 R497.5 Z{var.zpos+525.5}
G2 X497.5 Y152.5 R497.5 Z{var.zpos+525.5}
G2 X-497.5 Y152.5 R497.5 Z{var.zpos+526.0}
G2 X497.5 Y152.5 R497.5 Z{var.zpos+526.0}
G2 X-497.5 Y152.5 R497.5 Z{var.zpos+526.5}
G2 X497.5 Y152.5 R497.5 Z{var.zpos+526.5}
G2 X-497.5 Y152.5 R497.5 Z{var.zpos+527.0}
G2 X497.5 Y152.5 R497.5 Z{var.zpos+527.0}
G2 X-497.5 Y152.5 R497.5 Z{var.zpos+527.5}
G2 X497.5 Y152.5 R497.5 Z{var.zpos+527.5}
G2 X-497.5 Y152.5 R497.5 Z{var.zpos+528.0}
G2 X497.5 Y152.5 R497.5 Z{var.zpos+528.0}
G2 X-497.5 Y152.5 R497.5 Z{var.zpos+528.5}
G2 X497.5 Y152.5 R497.5 Z{var.zpos+528.5}
G2 X-497.5 Y152.5 R497.5 Z{var.zpos+529.0}
G2 X497.5 Y152.5 R497.5 Z{var.zpos+529.0}
G2 X-497.5 Y152.5 R497.5 Z{var.zpos+529.5}
G2 X497.5 Y152.5 R497.5 Z{var.zpos+529.5}
G2 X-497.5 Y152.5 R497.5 Z{var.zpos+530.0}
G2 X497.5 Y152.5 R497.5 Z{var.zpos+530.0}
G2 X-497.5 Y152.5 R497.5 Z{var.zpos+530.5}
G2 X497.5 Y152.5 R497.5 Z{var.zpos+530.5}
G2 X-497.5 Y152.5 R497.5 Z{var.zpos+531.0}
G2 X497.5 Y152.5 R497.5 Z{var.zpos+531.0}
G2 X-497.5 Y152.5 R497.5 Z{var.zpos+531.5}
G2 X497.5 Y152.5 R497.5 Z{var.zpos+531.5}
G2 X-497.5 Y152.5 R497.5 Z{var.zpos+532.0}
G2 X497.5 Y152.5 R497.5 Z{var.zpos+532.0}
G2 X-497.5 Y152.5 R497.5 Z{var.zpos+532.5}
G2 X497.5 Y152.5 R497.5 Z{var.zpos+532.5}
G2 X-497.5 Y152.5 R497.5 Z{var.zpos+533.0}
G2 X497.5 Y152.5 R497.5 Z{var.zpos+533.0}
G2 X-497.5 Y152.5 R497.5 Z{var.zpos+533.5}
G2 X497.5 Y152.5 R497.5 Z{var.zpos+533.5}
G2 X-497.5 Y152.5 R497.5 Z{var.zpos+534.0}
G2 X497.5 Y152.5 R497.5 Z{var.zpos+534.0}
G2 X-497.5 Y152.5 R497.5 Z{var.zpos+534.5}
G2 X497.5 Y152.5 R497.5 Z{var.zpos+534.5}
G2 X-497.5 Y152.5 R497.5 Z{var.zpos+535.0}
G2 X497.5 Y152.5 R497.5 Z{var.zpos+535.0}
G2 X-497.5 Y152.5 R497.5 Z{var.zpos+535.5}
G2 X497.5 Y152.5 R497.5 Z{var.zpos+535.5}
G2 X-497.5 Y152.5 R497.5 Z{var.zpos+536.0}
G2 X497.5 Y152.5 R497.5 Z{var.zpos+536.0}
G2 X-497.5 Y152.5 R497.5 Z{var.zpos+536.5}
G2 X497.5 Y152.5 R497.5 Z{var.zpos+536.5}
G2 X-497.5 Y152.5 R497.5 Z{var.zpos+537.0}
G2 X497.5 Y152.5 R497.5 Z{var.zpos+537.0}
G2 X-497.5 Y152.5 R497.5 Z{var.zpos+537.5}
G2 X497.5 Y152.5 R497.5 Z{var.zpos+537.5}
G2 X-497.5 Y152.5 R497.5 Z{var.zpos+538.0}
G2 X497.5 Y152.5 R497.5 Z{var.zpos+538.0}
G2 X-497.5 Y152.5 R497.5 Z{var.zpos+538.5}
G2 X497.5 Y152.5 R497.5 Z{var.zpos+538.5}
G2 X-497.5 Y152.5 R497.5 Z{var.zpos+539.0}
G2 X497.5 Y152.5 R497.5 Z{var.zpos+539.0}
G2 X-497.5 Y152.5 R497.5 Z{var.zpos+539.5}
G2 X497.5 Y152.5 R497.5 Z{var.zpos+539.5}
G2 X-497.5 Y152.5 R497.5 Z{var.zpos+540.0}
G2 X497.5 Y152.5 R497.5 Z{var.zpos+540.0}
G2 X-497.5 Y152.5 R497.5 Z{var.zpos+540.5}
G2 X497.5 Y152.5 R497.5 Z{var.zpos+540.5}
G2 X-497.5 Y152.5 R497.5 Z{var.zpos+541.0}
G2 X497.5 Y152.5 R497.5 Z{var.zpos+541.0}
G2 X-497.5 Y152.5 R497.5 Z{var.zpos+541.5}
G2 X497.5 Y152.5 R497.5 Z{var.zpos+541.5}
G2 X-497.5 Y152.5 R497.5 Z{var.zpos+542.0}
G2 X497.5 Y152.5 R497.5 Z{var.zpos+542.0}
G2 X-497.5 Y152.5 R497.5 Z{var.zpos+542.5}
G2 X497.5 Y152.5 R497.5 Z{var.zpos+542.5}
G2 X-497.5 Y152.5 R497.5 Z{var.zpos+543.0}
G2 X497.5 Y152.5 R497.5 Z{var.zpos+543.0}
G2 X-497.5 Y152.5 R497.5 Z{var.zpos+543.5}
G2 X497.5 Y152.5 R497.5 Z{var.zpos+543.5}
G2 X-497.5 Y152.5 R497.5 Z{var.zpos+544.0}
G2 X497.5 Y152.5 R497.5 Z{var.zpos+544.0}
G2 X-497.5 Y152.5 R497.5 Z{var.zpos+544.5}
G2 X497.5 Y152.5 R497.5 Z{var.zpos+544.5}
G2 X-497.5 Y152.5 R497.5 Z{var.zpos+545.0}
G2 X497.5 Y152.5 R497.5 Z{var.zpos+545.0}
G2 X-497.5 Y152.5 R497.5 Z{var.zpos+545.5}
G2 X497.5 Y152.5 R497.5 Z{var.zpos+545.5}
G2 X-497.5 Y152.5 R497.5 Z{var.zpos+546.0}
G2 X497.5 Y152.5 R497.5 Z{var.zpos+546.0}
G2 X-497.5 Y152.5 R497.5 Z{var.zpos+546.5}
G2 X497.5 Y152.5 R497.5 Z{var.zpos+546.5}
G2 X-497.5 Y152.5 R497.5 Z{var.zpos+547.0}
G2 X497.5 Y152.5 R497.5 Z{var.zpos+547.0}
G2 X-497.5 Y152.5 R497.5 Z{var.zpos+547.5}
G2 X497.5 Y152.5 R497.5 Z{var.zpos+547.5}
G2 X-497.5 Y152.5 R497.5 Z{var.zpos+548.0}
G2 X497.5 Y152.5 R497.5 Z{var.zpos+548.0}
G2 X-497.5 Y152.5 R497.5 Z{var.zpos+548.5}
G2 X497.5 Y152.5 R497.5 Z{var.zpos+548.5}
G2 X-497.5 Y152.5 R497.5 Z{var.zpos+549.0}
G2 X497.5 Y152.5 R497.5 Z{var.zpos+549.0}
G2 X-497.5 Y152.5 R497.5 Z{var.zpos+549.5}
G2 X497.5 Y152.5 R497.5 Z{var.zpos+549.5}
G2 X-497.5 Y152.5 R497.5 Z{var.zpos+550.0}
G2 X497.5 Y152.5 R497.5 Z{var.zpos+550.0}
G2 X-497.5 Y152.5 R497.5 Z{var.zpos+550.5}
G2 X497.5 Y152.5 R497.5 Z{var.zpos+550.5}
G2 X-497.5 Y152.5 R497.5 Z{var.zpos+551.0}
G2 X497.5 Y152.5 R497.5 Z{var.zpos+551.0}
G2 X-497.5 Y152.5 R497.5 Z{var.zpos+551.5}
G2 X497.5 Y152.5 R497.5 Z{var.zpos+551.5}
G2 X-497.5 Y152.5 R497.5 Z{var.zpos+552.0}
G2 X497.5 Y152.5 R497.5 Z{var.zpos+552.0}
G2 X-497.5 Y152.5 R497.5 Z{var.zpos+552.5}
G2 X497.5 Y152.5 R497.5 Z{var.zpos+552.5}
G2 X-497.5 Y152.5 R497.5 Z{var.zpos+553.0}
G2 X497.5 Y152.5 R497.5 Z{var.zpos+553.0}
G2 X-497.5 Y152.5 R497.5 Z{var.zpos+553.5}
G2 X497.5 Y152.5 R497.5 Z{var.zpos+553.5}
G2 X-497.5 Y152.5 R497.5 Z{var.zpos+554.0}
G2 X497.5 Y152.5 R497.5 Z{var.zpos+554.0}
G2 X-497.5 Y152.5 R497.5 Z{var.zpos+554.5}
G2 X497.5 Y152.5 R497.5 Z{var.zpos+554.5}
G2 X-497.5 Y152.5 R497.5 Z{var.zpos+555.0}
G2 X497.5 Y152.5 R497.5 Z{var.zpos+555.0}
G2 X-497.5 Y152.5 R497.5 Z{var.zpos+555.5}
G2 X497.5 Y152.5 R497.5 Z{var.zpos+555.5}
G2 X-497.5 Y152.5 R497.5 Z{var.zpos+556.0}
G2 X497.5 Y152.5 R497.5 Z{var.zpos+556.0}
G2 X-497.5 Y152.5 R497.5 Z{var.zpos+556.5}
G2 X497.5 Y152.5 R497.5 Z{var.zpos+556.5}
G2 X-497.5 Y152.5 R497.5 Z{var.zpos+557.0}
G2 X497.5 Y152.5 R497.5 Z{var.zpos+557.0}
G2 X-497.5 Y152.5 R497.5 Z{var.zpos+557.5}
G2 X497.5 Y152.5 R497.5 Z{var.zpos+557.5}
G2 X-497.5 Y152.5 R497.5 Z{var.zpos+558.0}
G2 X497.5 Y152.5 R497.5 Z{var.zpos+558.0}
G2 X-497.5 Y152.5 R497.5 Z{var.zpos+558.5}
G2 X497.5 Y152.5 R497.5 Z{var.zpos+558.5}
G2 X-497.5 Y152.5 R497.5 Z{var.zpos+559.0}
G2 X497.5 Y152.5 R497.5 Z{var.zpos+559.0}
G2 X-497.5 Y152.5 R497.5 Z{var.zpos+559.5}
G2 X497.5 Y152.5 R497.5 Z{var.zpos+559.5}
G2 X-497.5 Y152.5 R497.5 Z{var.zpos+560.0}
G2 X497.5 Y152.5 R497.5 Z{var.zpos+560.0}
G2 X-497.5 Y152.5 R497.5 Z{var.zpos+560.5}
G2 X497.5 Y152.5 R497.5 Z{var.zpos+560.5}
G2 X-497.5 Y152.5 R497.5 Z{var.zpos+561.0}
G2 X497.5 Y152.5 R497.5 Z{var.zpos+561.0}
G2 X-497.5 Y152.5 R497.5 Z{var.zpos+561.5}
G2 X497.5 Y152.5 R497.5 Z{var.zpos+561.5}
G2 X-497.5 Y152.5 R497.5 Z{var.zpos+562.0}
G2 X497.5 Y152.5 R497.5 Z{var.zpos+562.0}
G2 X-497.5 Y152.5 R497.5 Z{var.zpos+562.5}
G2 X497.5 Y152.5 R497.5 Z{var.zpos+562.5}
G2 X-497.5 Y152.5 R497.5 Z{var.zpos+563.0}
G2 X497.5 Y152.5 R497.5 Z{var.zpos+563.0}
G2 X-497.5 Y152.5 R497.5 Z{var.zpos+563.5}
G2 X497.5 Y152.5 R497.5 Z{var.zpos+563.5}
G2 X-497.5 Y152.5 R497.5 Z{var.zpos+564.0}
G2 X497.5 Y152.5 R497.5 Z{var.zpos+564.0}
G2 X-497.5 Y152.5 R497.5 Z{var.zpos+564.5}
G2 X497.5 Y152.5 R497.5 Z{var.zpos+564.5}
G2 X-497.5 Y152.5 R497.5 Z{var.zpos+565.0}
G2 X497.5 Y152.5 R497.5 Z{var.zpos+565.0}
G2 X-497.5 Y152.5 R497.5 Z{var.zpos+565.5}
G2 X497.5 Y152.5 R497.5 Z{var.zpos+565.5}
G2 X-497.5 Y152.5 R497.5 Z{var.zpos+566.0}
G2 X497.5 Y152.5 R497.5 Z{var.zpos+566.0}
G2 X-497.5 Y152.5 R497.5 Z{var.zpos+566.5}
G2 X497.5 Y152.5 R497.5 Z{var.zpos+566.5}
G2 X-497.5 Y152.5 R497.5 Z{var.zpos+567.0}
G2 X497.5 Y152.5 R497.5 Z{var.zpos+567.0}
G2 X-497.5 Y152.5 R497.5 Z{var.zpos+567.5}
G2 X497.5 Y152.5 R497.5 Z{var.zpos+567.5}
G2 X-497.5 Y152.5 R497.5 Z{var.zpos+568.0}
G2 X497.5 Y152.5 R497.5 Z{var.zpos+568.0}
G2 X-497.5 Y152.5 R497.5 Z{var.zpos+568.5}
G2 X497.5 Y152.5 R497.5 Z{var.zpos+568.5}
G2 X-497.5 Y152.5 R497.5 Z{var.zpos+569.0}
G2 X497.5 Y152.5 R497.5 Z{var.zpos+569.0}
G2 X-497.5 Y152.5 R497.5 Z{var.zpos+569.5}
G2 X497.5 Y152.5 R497.5 Z{var.zpos+569.5}
G2 X-497.5 Y152.5 R497.5 Z{var.zpos+570.0}
G2 X497.5 Y152.5 R497.5 Z{var.zpos+570.0}
G2 X-497.5 Y152.5 R497.5 Z{var.zpos+570.5}
G2 X497.5 Y152.5 R497.5 Z{var.zpos+570.5}
G2 X-497.5 Y152.5 R497.5 Z{var.zpos+571.0}
G2 X497.5 Y152.5 R497.5 Z{var.zpos+571.0}
G2 X-497.5 Y152.5 R497.5 Z{var.zpos+571.5}
G2 X497.5 Y152.5 R497.5 Z{var.zpos+571.5}
G2 X-497.5 Y152.5 R497.5 Z{var.zpos+572.0}
G2 X497.5 Y152.5 R497.5 Z{var.zpos+572.0}
G2 X-497.5 Y152.5 R497.5 Z{var.zpos+572.5}
G2 X497.5 Y152.5 R497.5 Z{var.zpos+572.5}
G2 X-497.5 Y152.5 R497.5 Z{var.zpos+573.0}
G2 X497.5 Y152.5 R497.5 Z{var.zpos+573.0}
G2 X-497.5 Y152.5 R497.5 Z{var.zpos+573.5}
G2 X497.5 Y152.5 R497.5 Z{var.zpos+573.5}
G2 X-497.5 Y152.5 R497.5 Z{var.zpos+574.0}
G2 X497.5 Y152.5 R497.5 Z{var.zpos+574.0}
G2 X-497.5 Y152.5 R497.5 Z{var.zpos+574.5}
G2 X497.5 Y152.5 R497.5 Z{var.zpos+574.5}
G2 X-497.5 Y152.5 R497.5 Z{var.zpos+575.0}
G2 X497.5 Y152.5 R497.5 Z{var.zpos+575.0}
G2 X-497.5 Y152.5 R497.5 Z{var.zpos+575.5}
G2 X497.5 Y152.5 R497.5 Z{var.zpos+575.5}
G2 X-497.5 Y152.5 R497.5 Z{var.zpos+576.0}
G2 X497.5 Y152.5 R497.5 Z{var.zpos+576.0}
G2 X-497.5 Y152.5 R497.5 Z{var.zpos+576.5}
G2 X497.5 Y152.5 R497.5 Z{var.zpos+576.5}
G2 X-497.5 Y152.5 R497.5 Z{var.zpos+577.0}
G2 X497.5 Y152.5 R497.5 Z{var.zpos+577.0}
G2 X-497.5 Y152.5 R497.5 Z{var.zpos+577.5}
G2 X497.5 Y152.5 R497.5 Z{var.zpos+577.5}
G2 X-497.5 Y152.5 R497.5 Z{var.zpos+578.0}
G2 X497.5 Y152.5 R497.5 Z{var.zpos+578.0}
G2 X-497.5 Y152.5 R497.5 Z{var.zpos+578.5}
G2 X497.5 Y152.5 R497.5 Z{var.zpos+578.5}
G2 X-497.5 Y152.5 R497.5 Z{var.zpos+579.0}
G2 X497.5 Y152.5 R497.5 Z{var.zpos+579.0}
G2 X-497.5 Y152.5 R497.5 Z{var.zpos+579.5}
G2 X497.5 Y152.5 R497.5 Z{var.zpos+579.5}
G2 X-497.5 Y152.5 R497.5 Z{var.zpos+580.0}
G2 X497.5 Y152.5 R497.5 Z{var.zpos+580.0}
G2 X-497.5 Y152.5 R497.5 Z{var.zpos+580.5}
G2 X497.5 Y152.5 R497.5 Z{var.zpos+580.5}
G2 X-497.5 Y152.5 R497.5 Z{var.zpos+581.0}
G2 X497.5 Y152.5 R497.5 Z{var.zpos+581.0}
G2 X-497.5 Y152.5 R497.5 Z{var.zpos+581.5}
G2 X497.5 Y152.5 R497.5 Z{var.zpos+581.5}
G2 X-497.5 Y152.5 R497.5 Z{var.zpos+582.0}
G2 X497.5 Y152.5 R497.5 Z{var.zpos+582.0}
G2 X-497.5 Y152.5 R497.5 Z{var.zpos+582.5}
G2 X497.5 Y152.5 R497.5 Z{var.zpos+582.5}
G2 X-497.5 Y152.5 R497.5 Z{var.zpos+583.0}
G2 X497.5 Y152.5 R497.5 Z{var.zpos+583.0}
G2 X-497.5 Y152.5 R497.5 Z{var.zpos+583.5}
G2 X497.5 Y152.5 R497.5 Z{var.zpos+583.5}
G2 X-497.5 Y152.5 R497.5 Z{var.zpos+584.0}
G2 X497.5 Y152.5 R497.5 Z{var.zpos+584.0}
G2 X-497.5 Y152.5 R497.5 Z{var.zpos+584.5}
G2 X497.5 Y152.5 R497.5 Z{var.zpos+584.5}
G2 X-497.5 Y152.5 R497.5 Z{var.zpos+585.0}
G2 X497.5 Y152.5 R497.5 Z{var.zpos+585.0}
G2 X-497.5 Y152.5 R497.5 Z{var.zpos+585.5}
G2 X497.5 Y152.5 R497.5 Z{var.zpos+585.5}
G2 X-497.5 Y152.5 R497.5 Z{var.zpos+586.0}
G2 X497.5 Y152.5 R497.5 Z{var.zpos+586.0}
G2 X-497.5 Y152.5 R497.5 Z{var.zpos+586.5}
G2 X497.5 Y152.5 R497.5 Z{var.zpos+586.5}
G2 X-497.5 Y152.5 R497.5 Z{var.zpos+587.0}
G2 X497.5 Y152.5 R497.5 Z{var.zpos+587.0}
G2 X-497.5 Y152.5 R497.5 Z{var.zpos+587.5}
G2 X497.5 Y152.5 R497.5 Z{var.zpos+587.5}
G2 X-497.5 Y152.5 R497.5 Z{var.zpos+588.0}
G2 X497.5 Y152.5 R497.5 Z{var.zpos+588.0}
G2 X-497.5 Y152.5 R497.5 Z{var.zpos+588.5}
G2 X497.5 Y152.5 R497.5 Z{var.zpos+588.5}
G2 X-497.5 Y152.5 R497.5 Z{var.zpos+589.0}
G2 X497.5 Y152.5 R497.5 Z{var.zpos+589.0}
G2 X-497.5 Y152.5 R497.5 Z{var.zpos+589.5}
G2 X497.5 Y152.5 R497.5 Z{var.zpos+589.5}
G2 X-497.5 Y152.5 R497.5 Z{var.zpos+590.0}
G2 X497.5 Y152.5 R497.5 Z{var.zpos+590.0}
G2 X-497.5 Y152.5 R497.5 Z{var.zpos+590.5}
G2 X497.5 Y152.5 R497.5 Z{var.zpos+590.5}
G2 X-497.5 Y152.5 R497.5 Z{var.zpos+591.0}
G2 X497.5 Y152.5 R497.5 Z{var.zpos+591.0}
G2 X-497.5 Y152.5 R497.5 Z{var.zpos+591.5}
G2 X497.5 Y152.5 R497.5 Z{var.zpos+591.5}
G2 X-497.5 Y152.5 R497.5 Z{var.zpos+592.0}
G2 X497.5 Y152.5 R497.5 Z{var.zpos+592.0}
G2 X-497.5 Y152.5 R497.5 Z{var.zpos+592.5}
G2 X497.5 Y152.5 R497.5 Z{var.zpos+592.5}
G2 X-497.5 Y152.5 R497.5 Z{var.zpos+593.0}
G2 X497.5 Y152.5 R497.5 Z{var.zpos+593.0}
G2 X-497.5 Y152.5 R497.5 Z{var.zpos+593.5}
G2 X497.5 Y152.5 R497.5 Z{var.zpos+593.5}
G2 X-497.5 Y152.5 R497.5 Z{var.zpos+594.0}
G2 X497.5 Y152.5 R497.5 Z{var.zpos+594.0}
