; Circle.g

G90

if move.axes[0].homed = false || move.axes[1].homed = false || move.axes[2].homed = false
    G28 ; home

T-1 P0 ; set to no tool for machine coordinates

M400
G1 Z0 F7200 ; move to 0
M400
G4 P200 ; debounce

if move.axes[2].machinePosition > 800
    M118 P0 S"Z-axis must be below 800!" L3
    M99 ; exit macro

G1 F{global.tool_change_speed} ; set feedrate to 1200 mm/s

M400

;M203 X144000 Y144000 ; increase speed limit
;M201 X24000 Y24000 ; increase maxaccelerations
;M204 T10000 ; increase travel accelerations

G1 X-497.5 Y152.5

;M204 T24000 ; increase travel accelerations

G2 X497.5 Y152.5 R497.5 Z48
G2 X-497.5 Y152.5 R497.5 Z96
G2 X497.5 Y152.5 R497.5 Z144
G2 X-497.5 Y152.5 R497.5 Z192
G2 X497.5 Y152.5 R497.5 Z240
G2 X-497.5 Y152.5 R497.5 Z288
G2 X497.5 Y152.5 R497.5 Z336
G2 X-497.5 Y152.5 R497.5 Z384
G2 X497.5 Y152.5 R497.5 Z432
G2 X-497.5 Y152.5 R497.5 Z480
G2 X497.5 Y152.5 R497.5 Z528
G2 X-497.5 Y152.5 R497.5 Z576
G2 X497.5 Y152.5 R497.5 Z624
G2 X-497.5 Y152.5 R497.5 Z672
G2 X497.5 Y152.5 R497.5 Z720
G2 X-497.5 Y152.5 R497.5 Z768
G2 X497.5 Y152.5 R497.5 Z816
G2 X-497.5 Y152.5 R497.5 Z864
G2 X497.5 Y152.5 R497.5 Z912
G2 X-497.5 Y152.5 R497.5 Z960
G2 X497.5 Y152.5 R497.5 Z1008
G2 X-497.5 Y152.5 R497.5 Z1056
G2 X497.5 Y152.5 R497.5 Z1104
G2 X-497.5 Y152.5 R497.5 Z1152
G2 X497.5 Y152.5 R497.5 Z1200
G2 X-497.5 Y152.5 R497.5 Z1248
G2 X497.5 Y152.5 R497.5 Z1200
G2 X-497.5 Y152.5 R497.5 Z1152
G2 X497.5 Y152.5 R497.5 Z1104
G2 X-497.5 Y152.5 R497.5 Z1056
G2 X497.5 Y152.5 R497.5 Z1008
G2 X-497.5 Y152.5 R497.5 Z960
G2 X497.5 Y152.5 R497.5 Z912
G2 X-497.5 Y152.5 R497.5 Z864
G2 X497.5 Y152.5 R497.5 Z816
G2 X-497.5 Y152.5 R497.5 Z768
G2 X497.5 Y152.5 R497.5 Z720
G2 X-497.5 Y152.5 R497.5 Z672
G2 X497.5 Y152.5 R497.5 Z624
G2 X-497.5 Y152.5 R497.5 Z576
G2 X497.5 Y152.5 R497.5 Z528
G2 X-497.5 Y152.5 R497.5 Z480
G2 X497.5 Y152.5 R497.5 Z432
G2 X-497.5 Y152.5 R497.5 Z384
G2 X497.5 Y152.5 R497.5 Z336
G2 X-497.5 Y152.5 R497.5 Z288
G2 X497.5 Y152.5 R497.5 Z240
G2 X-497.5 Y152.5 R497.5 Z192
G2 X497.5 Y152.5 R497.5 Z144
G2 X-497.5 Y152.5 R497.5 Z96
G2 X497.5 Y152.5 R497.5 Z48

G2 X-497.5 Y152.5 R497.5 Z96
G2 X497.5 Y152.5 R497.5 Z144
G2 X-497.5 Y152.5 R497.5 Z192
G2 X497.5 Y152.5 R497.5 Z240
G2 X-497.5 Y152.5 R497.5 Z288
G2 X497.5 Y152.5 R497.5 Z336
G2 X-497.5 Y152.5 R497.5 Z384
G2 X497.5 Y152.5 R497.5 Z432
G2 X-497.5 Y152.5 R497.5 Z480
G2 X497.5 Y152.5 R497.5 Z528
G2 X-497.5 Y152.5 R497.5 Z576
G2 X497.5 Y152.5 R497.5 Z624
G2 X-497.5 Y152.5 R497.5 Z672
G2 X497.5 Y152.5 R497.5 Z720
G2 X-497.5 Y152.5 R497.5 Z768
G2 X497.5 Y152.5 R497.5 Z816
G2 X-497.5 Y152.5 R497.5 Z864
G2 X497.5 Y152.5 R497.5 Z912
G2 X-497.5 Y152.5 R497.5 Z960
G2 X497.5 Y152.5 R497.5 Z1008
G2 X-497.5 Y152.5 R497.5 Z1056
G2 X497.5 Y152.5 R497.5 Z1104
G2 X-497.5 Y152.5 R497.5 Z1152
G2 X497.5 Y152.5 R497.5 Z1200
G2 X-497.5 Y152.5 R497.5 Z1248
G2 X497.5 Y152.5 R497.5 Z1200
G2 X-497.5 Y152.5 R497.5 Z1152
G2 X497.5 Y152.5 R497.5 Z1104
G2 X-497.5 Y152.5 R497.5 Z1056
G2 X497.5 Y152.5 R497.5 Z1008
G2 X-497.5 Y152.5 R497.5 Z960
G2 X497.5 Y152.5 R497.5 Z912
G2 X-497.5 Y152.5 R497.5 Z864
G2 X497.5 Y152.5 R497.5 Z816
G2 X-497.5 Y152.5 R497.5 Z768
G2 X497.5 Y152.5 R497.5 Z720
G2 X-497.5 Y152.5 R497.5 Z672
G2 X497.5 Y152.5 R497.5 Z624
G2 X-497.5 Y152.5 R497.5 Z576
G2 X497.5 Y152.5 R497.5 Z528
G2 X-497.5 Y152.5 R497.5 Z480
G2 X497.5 Y152.5 R497.5 Z432
G2 X-497.5 Y152.5 R497.5 Z384
G2 X497.5 Y152.5 R497.5 Z336
G2 X-497.5 Y152.5 R497.5 Z288
G2 X497.5 Y152.5 R497.5 Z240
G2 X-497.5 Y152.5 R497.5 Z192
G2 X497.5 Y152.5 R497.5 Z144
G2 X-497.5 Y152.5 R497.5 Z96
G2 X497.5 Y152.5 R497.5 Z48

M203 X72000 Y72000 ; reset default speed limit
M201 X10000 Y10000 ; reset max accelerations

M204 T10000 ; reset travel accelerations

T{state.previousTool} P0 ; reselect previous tool
